;Generated by Cura LulzBot Edition GCodeWriter Version: 2.6.52
;FLAVOR:RepRap
;TIME:12123
;Filament used: 11.8329m
;Layer height: 0.38
;Generated with Cura_SteamEngine 2.6.52
;This G-Code has been generated specifically for the LulzBot TAZ 6 with standard extruder
G26                                 ; clear potential 'probe fail' condition
G21                                 ; set units to Millimetres
M107                                ; disable fans
G90                                 ; absolute positioning
M82                                 ; set extruder to absolute mode
G92 E0                              ; set extruder position to 0
M140 S95    ; start bed heating up
G28 XY                              ; home X and Y
G1 X-19 Y258 F1000                  ; move to safe homing position
M109 R175 ; soften filament before homing Z
G28 Z                               ; home Z
M109 R185   ; wait for extruder to reach wiping temp
G1 E-30 F100                        ; retract filament
G1 X-15 Y100 F3000                  ; move above wiper pad
G1 Z1                               ; push nozzle into wiper
G1 X-17 Y95 F1000                   ; slow wipe
G1 X-17 Y90 F1000                   ; slow wipe
G1 X-17 Y85 F1000                   ; slow wipe
G1 X-15 Y90 F1000                   ; slow wipe
G1 X-17 Y80 F1000                   ; slow wipe
G1 X-15 Y95 F1000                   ; slow wipe
G1 X-17 Y75 F2000                   ; fast wipe
G1 X-15 Y65 F2000                   ; fast wipe
G1 X-17 Y70 F2000                   ; fast wipe
G1 X-15 Y60 F2000                   ; fast wipe
G1 X-17 Y55 F2000                   ; fast wipe
G1 X-15 Y50 F2000                   ; fast wipe
G1 X-17 Y40 F2000                   ; fast wipe
G1 X-15 Y45 F2000                   ; fast wipe
G1 X-17 Y35 F2000                   ; fast wipe
G1 X-15 Y40 F2000                   ; fast wipe
G1 X-17 Y70 F2000                   ; fast wipe
G1 X-15 Y30 Z2 F2000                ; fast wipe
G1 X-17 Y35 F2000                   ; fast wipe
G1 X-15 Y25 F2000                   ; fast wipe
G1 X-17 Y30 F2000                   ; fast wipe
G1 X-15 Y25 Z1.5 F1000              ; slow wipe
G1 X-17 Y23 F1000                   ; slow wipe
G1 Z10                              ; raise extruder
M109 R185  ; wait for extruder to reach probe temp
G1 X-9 Y-9                          ; move above first probe point
M204 S100                           ; set probing acceleration
G29                                 ; start auto-leveling sequence
M204 S500                           ; restore standard acceleration
G1 X0 Y0 Z15 F5000                  ; move up off last probe point
G4 S1                               ; pause
M400                                ; wait for moves to finish
M117 Heating...                     ; progress indicator message on LCD
M109 R235  ; wait for extruder to reach printing temp
M190 S95    ; wait for bed to reach printing temp
G1 Z2 E0 F75                        ; prime tiny bit of filment into the nozzle
M117 TAZ 6 Printing...              ; progress indicator message on LCD

;LAYER_COUNT:28
;LAYER:0
M107
G0 F2625 X62.709 Y62.713 Z0.425
;TYPE:SKIRT
G1 F900 X63.096 Y62.381 E0.01698
G1 X63.531 Y62.115 E0.03397
G1 X64.001 Y61.919 E0.05093
G1 X64.496 Y61.8 E0.06789
G1 X65.009 Y61.759 E0.08503
G1 X214.991 Y61.76 E5.08099
G1 X215.499 Y61.8 E5.09796
G1 X215.994 Y61.919 E5.11492
G1 X216.465 Y62.114 E5.1319
G1 X216.9 Y62.38 E5.14888
G1 X217.287 Y62.71 E5.16583
G1 X217.619 Y63.097 E5.18281
G1 X217.885 Y63.532 E5.1998
G1 X218.081 Y64.002 E5.21676
G1 X218.2 Y64.497 E5.23372
G1 X218.241 Y65.01 E5.25086
G1 X218.241 Y214.991 E10.24678
G1 X218.201 Y215.499 E10.26375
G1 X218.082 Y215.994 E10.28071
G1 X217.887 Y216.465 E10.29769
G1 X217.621 Y216.9 E10.31468
G1 X217.291 Y217.287 E10.33162
G1 X216.904 Y217.619 E10.3486
G1 X216.469 Y217.885 E10.36559
G1 X215.999 Y218.081 E10.38255
G1 X215.504 Y218.2 E10.39951
G1 X214.991 Y218.241 E10.41665
G1 X65.009 Y218.241 E15.41261
G1 X64.501 Y218.201 E15.42958
G1 X64.006 Y218.082 E15.44654
G1 X63.535 Y217.887 E15.46352
G1 X63.1 Y217.621 E15.4805
G1 X62.713 Y217.291 E15.49745
G1 X62.381 Y216.904 E15.51443
G1 X62.115 Y216.469 E15.53142
G1 X61.919 Y215.999 E15.54838
G1 X61.8 Y215.504 E15.56534
G1 X61.759 Y214.991 E15.58248
G1 X61.759 Y65.009 E20.57843
G1 X61.799 Y64.501 E20.59541
G1 X61.918 Y64.006 E20.61237
G1 X62.113 Y63.535 E20.62935
G1 X62.379 Y63.1 E20.64633
G1 X62.709 Y62.713 E20.66327
G1 F600 E19.66327
G0 F2625 X64.335 Y65.764
G0 X65.764 Y65.764
G0 X65.82 Y65.82
G0 X65.75 Y65.75
;TYPE:WALL-INNER
G1 F600 E20.66327
G1 F900 X214.25 Y65.75 E25.60986
G1 X214.25 Y214.25 E30.55645
G1 X65.75 Y214.25 E35.50304
G1 X65.75 Y65.75 E40.44963
G0 F2625 X65.25 Y65.25
;TYPE:WALL-OUTER
G1 F900 X214.75 Y65.25 E45.42953
G1 X214.75 Y214.75 E50.40942
G1 X65.25 Y214.75 E55.38932
G1 X65.25 Y65.25 E60.36922
G0 F2625 X65.5 Y65.25
G0 X65.974 Y65.974
;TYPE:SKIN
G1 F900 X214.024 Y214.024 E67.34356
G1 X214.112 Y214.112
G0 F2625 X213.317 Y214.024
G1 F900 X65.974 Y66.681 E74.28458
G1 X65.886 Y66.593
G0 F2625 X65.974 Y67.388
G1 F900 X212.61 Y214.024 E81.19231
G1 X212.698 Y214.112
G0 F2625 X211.902 Y214.024
G1 F900 X65.974 Y68.095 E88.0667
G1 X65.886 Y68.007
G0 F2625 X65.974 Y68.802
G1 F900 X211.195 Y214.024 E94.90779
G1 X211.283 Y214.112
G0 F2625 X210.488 Y214.024
G1 F900 X65.974 Y69.51 E101.71555
G1 X65.886 Y69.422
G0 F2625 X65.974 Y70.217
G1 F900 X209.781 Y214.024 E108.49001
G1 X209.869 Y214.112
G0 F2625 X209.074 Y214.024
G1 F900 X65.974 Y70.924 E115.23116
G1 X65.886 Y70.836
G0 F2625 X65.974 Y71.631
G1 F900 X208.367 Y214.024 E121.939
G1 X208.455 Y214.112
G0 F2625 X207.66 Y214.024
G1 F900 X65.974 Y72.338 E128.61354
G1 X65.886 Y72.25
G0 F2625 X65.974 Y73.045
G1 F900 X206.953 Y214.024 E135.25477
G1 X207.041 Y214.112
G0 F2625 X206.246 Y214.024
G1 F900 X65.974 Y73.752 E141.8627
G1 X65.886 Y73.664
G0 F2625 X65.974 Y74.459
G1 F900 X205.538 Y214.024 E148.4373
G1 X205.626 Y214.112
G0 F2625 X204.831 Y214.024
G1 F900 X65.974 Y75.166 E154.9786
G1 X65.886 Y75.078
G0 F2625 X65.974 Y75.873
G1 F900 X204.124 Y214.024 E161.48658
G1 X204.212 Y214.112
G0 F2625 X203.417 Y214.024
G1 F900 X65.974 Y76.581 E167.96124
G1 X65.886 Y76.493
G0 F2625 X65.974 Y77.288
G1 F900 X202.71 Y214.024 E174.4026
G1 X202.798 Y214.112
G0 F2625 X202.003 Y214.024
G1 F900 X65.974 Y77.995 E180.81065
G1 X65.886 Y77.907
G0 F2625 X65.974 Y78.702
G1 F900 X201.296 Y214.024 E187.18539
G1 X201.384 Y214.112
G0 F2625 X200.589 Y214.024
G1 F900 X65.974 Y79.409 E193.52683
G1 X65.886 Y79.321
G0 F2625 X65.974 Y80.116
G1 F900 X199.882 Y214.024 E199.83496
G1 X199.97 Y214.112
G0 F2625 X199.175 Y214.024
G1 F900 X65.974 Y80.823 E206.10979
G1 X65.886 Y80.735
G0 F2625 X65.974 Y81.53
G1 F900 X198.467 Y214.024 E212.35129
G1 X198.555 Y214.112
G0 F2625 X197.76 Y214.024
G1 F900 X65.974 Y82.237 E218.55948
G1 X65.886 Y82.149
G0 F2625 X65.974 Y82.945
G1 F900 X197.053 Y214.024 E224.73435
G1 X197.141 Y214.112
G0 F2625 X196.346 Y214.024
G1 F900 X65.974 Y83.652 E230.87591
G1 X65.886 Y83.564
G0 F2625 X65.974 Y84.359
G1 F900 X195.639 Y214.024 E236.98416
G1 X195.727 Y214.112
G0 F2625 X194.932 Y214.024
G1 F900 X65.974 Y85.066 E243.05911
G1 X65.886 Y84.978
G0 F2625 X65.974 Y85.773
G1 F900 X194.225 Y214.024 E249.10075
G1 X194.313 Y214.112
G0 F2625 X193.518 Y214.024
G1 F900 X65.974 Y86.48 E255.10909
G1 X65.886 Y86.392
G0 F2625 X65.974 Y87.187
G1 F900 X192.811 Y214.024 E261.08412
G1 X192.899 Y214.112
G0 F2625 X192.103 Y214.024
G1 F900 X65.974 Y87.894 E267.02583
G1 X65.886 Y87.806
G0 F2625 X65.974 Y88.601
G1 F900 X191.396 Y214.024 E272.93423
G1 X191.484 Y214.112
G0 F2625 X190.689 Y214.024
G1 F900 X65.974 Y89.309 E278.8093
G1 X65.886 Y89.221
G0 F2625 X65.974 Y90.016
G1 F900 X189.982 Y214.024 E284.65106
G1 X190.07 Y214.112
G0 F2625 X189.275 Y214.024
G1 F900 X65.974 Y90.723 E290.45952
G1 X65.886 Y90.635
G0 F2625 X65.974 Y91.43
G1 F900 X188.568 Y214.024 E296.23467
G1 X188.656 Y214.112
G0 F2625 X187.861 Y214.024
G1 F900 X65.974 Y92.137 E301.97652
G1 X65.886 Y92.049
G0 F2625 X65.974 Y92.844
G1 F900 X187.154 Y214.024 E307.68507
G1 X187.242 Y214.112
G0 F2625 X186.447 Y214.024
G1 F900 X65.974 Y93.551 E313.3603
G1 X65.886 Y93.463
G0 F2625 X65.974 Y94.258
G1 F900 X185.739 Y214.024 E319.00221
G1 X185.827 Y214.112
G0 F2625 X185.032 Y214.024
G1 F900 X65.974 Y94.965 E324.61082
G1 X65.886 Y94.877
G0 F2625 X65.974 Y95.672
G1 F900 X184.325 Y214.024 E330.18611
G1 X184.413 Y214.112
G0 F2625 X183.618 Y214.024
G1 F900 X65.974 Y96.38 E335.72808
G1 X65.886 Y96.292
G0 F2625 X65.974 Y97.087
G1 F900 X182.911 Y214.024 E341.23675
G1 X182.999 Y214.112
G0 F2625 X182.204 Y214.024
G1 F900 X65.974 Y97.794 E346.71211
G1 X65.886 Y97.706
G0 F2625 X65.974 Y98.501
G1 F900 X181.497 Y214.024 E352.15416
G1 X181.585 Y214.112
G0 F2625 X180.79 Y214.024
G1 F900 X65.974 Y99.208 E357.56291
G1 X65.886 Y99.12
G0 F2625 X65.974 Y99.915
G1 F900 X180.083 Y214.024 E362.93835
G1 X180.171 Y214.112
G0 F2625 X179.376 Y214.024
G1 F900 X65.974 Y100.622 E368.28049
G1 X65.886 Y100.534
G0 F2625 X65.974 Y101.329
G1 F900 X178.668 Y214.024 E373.58929
G1 X178.756 Y214.112
G0 F2625 X177.961 Y214.024
G1 F900 X65.974 Y102.036 E378.8648
G1 X65.886 Y101.948
G0 F2625 X65.974 Y102.744
G1 F900 X177.254 Y214.024 E384.10697
G1 X177.342 Y214.112
G0 F2625 X176.547 Y214.024
G1 F900 X65.974 Y103.451 E389.31584
G1 X65.886 Y103.363
G0 F2625 X65.974 Y104.158
G1 F900 X175.84 Y214.024 E394.4914
G1 X175.928 Y214.112
G0 F2625 X175.133 Y214.024
G1 F900 X65.974 Y104.865 E399.63366
G1 X65.886 Y104.777
G0 F2625 X65.974 Y105.572
G1 F900 X174.426 Y214.024 E404.74262
G1 X174.514 Y214.112
G0 F2625 X173.719 Y214.024
G1 F900 X65.974 Y106.279 E409.81826
G1 X65.886 Y106.191
G0 F2625 X65.974 Y106.986
G1 F900 X173.012 Y214.024 E414.86061
G1 X173.1 Y214.112
G0 F2625 X172.304 Y214.024
G1 F900 X65.974 Y107.693 E419.86962
G1 X65.886 Y107.605
G0 F2625 X65.974 Y108.4
G1 F900 X171.597 Y214.024 E424.84533
G1 X171.685 Y214.112
G0 F2625 X170.89 Y214.024
G1 F900 X65.974 Y109.107 E429.78773
G1 X65.886 Y109.019
G0 F2625 X65.974 Y109.815
G1 F900 X170.183 Y214.024 E434.6968
G1 X170.271 Y214.112
G0 F2625 X169.476 Y214.024
G1 F900 X65.974 Y110.522 E439.57257
G1 X65.886 Y110.434
G0 F2625 X65.974 Y111.229
G1 F900 X168.769 Y214.024 E444.41503
G1 X168.857 Y214.112
G0 F2625 X168.062 Y214.024
G1 F900 X65.974 Y111.936 E449.22419
G1 X65.886 Y111.848
G0 F2625 X65.974 Y112.643
G1 F900 X167.355 Y214.024 E454.00004
G1 X167.443 Y214.112
G0 F2625 X166.648 Y214.024
G1 F900 X65.974 Y113.35 E458.74259
G1 X65.886 Y113.262
G0 F2625 X65.974 Y114.057
G1 F900 X165.94 Y214.024 E463.45181
G1 X166.028 Y214.112
G0 F2625 X165.233 Y214.024
G1 F900 X65.974 Y114.764 E468.12772
G1 X65.886 Y114.676
G0 F2625 X65.974 Y115.471
G1 F900 X164.526 Y214.024 E472.77033
G1 X164.614 Y214.112
G0 F2625 X163.819 Y214.024
G1 F900 X65.974 Y116.179 E477.37961
G1 X65.886 Y116.091
G0 F2625 X65.974 Y116.886
G1 F900 X163.112 Y214.024 E481.95558
G1 X163.2 Y214.112
G0 F2625 X162.405 Y214.024
G1 F900 X65.974 Y117.593 E486.49825
G1 X65.886 Y117.505
G0 F2625 X65.974 Y118.3
G1 F900 X161.698 Y214.024 E491.00761
G1 X161.786 Y214.112
G0 F2625 X160.991 Y214.024
G1 F900 X65.974 Y119.007 E495.48367
G1 X65.886 Y118.919
G0 F2625 X65.974 Y119.714
G1 F900 X160.284 Y214.024 E499.92642
G1 X160.372 Y214.112
G0 F2625 X159.577 Y214.024
G1 F900 X65.974 Y120.421 E504.33587
G1 X65.886 Y120.333
G0 F2625 X65.974 Y121.128
G1 F900 X158.869 Y214.024 E508.71199
G1 X158.957 Y214.112
G0 F2625 X158.162 Y214.024
G1 F900 X65.974 Y121.835 E513.0548
G1 X65.886 Y121.747
G0 F2625 X65.974 Y122.543
G1 F900 X157.455 Y214.024 E517.36428
G1 X157.543 Y214.112
G0 F2625 X156.748 Y214.024
G1 F900 X65.974 Y123.25 E521.64046
G1 X65.886 Y123.162
G0 F2625 X65.974 Y123.957
G1 F900 X156.041 Y214.024 E525.88333
G1 X156.129 Y214.112
G0 F2625 X155.334 Y214.024
G1 F900 X65.974 Y124.664 E530.0929
G1 X65.886 Y124.576
G0 F2625 X65.974 Y125.371
G1 F900 X154.627 Y214.024 E534.26916
G1 X154.715 Y214.112
G0 F2625 X153.92 Y214.024
G1 F900 X65.974 Y126.078 E538.41212
G1 X65.886 Y125.99
G0 F2625 X65.974 Y126.785
G1 F900 X153.213 Y214.024 E542.52177
G1 X153.301 Y214.112
G0 F2625 X152.505 Y214.024
G1 F900 X65.974 Y127.492 E546.5981
G1 X65.886 Y127.404
G0 F2625 X65.974 Y128.199
G1 F900 X151.798 Y214.024 E550.64111
G1 X151.886 Y214.112
G0 F2625 X151.091 Y214.024
G1 F900 X65.974 Y128.906 E554.65083
G1 X65.886 Y128.818
G0 F2625 X65.974 Y129.614
G1 F900 X150.384 Y214.024 E558.62721
G1 X150.472 Y214.112
G0 F2625 X149.677 Y214.024
G1 F900 X65.974 Y130.321 E562.57029
G1 X65.886 Y130.233
G0 F2625 X65.974 Y131.028
G1 F900 X148.97 Y214.024 E566.48006
G1 X149.058 Y214.112
G0 F2625 X148.263 Y214.024
G1 F900 X65.974 Y131.735 E570.35653
G1 X65.886 Y131.647
G0 F2625 X65.974 Y132.442
G1 F900 X147.556 Y214.024 E574.19969
G1 X147.644 Y214.112
G0 F2625 X146.849 Y214.024
G1 F900 X65.974 Y133.149 E578.00954
G1 X65.886 Y133.061
G0 F2625 X65.974 Y133.856
G1 F900 X146.142 Y214.024 E581.7861
G1 X146.23 Y214.112
G0 F2625 X145.434 Y214.024
G1 F900 X65.974 Y134.563 E585.52932
G1 X65.886 Y134.475
G0 F2625 X65.974 Y135.27
G1 F900 X144.727 Y214.024 E589.23924
G1 X144.815 Y214.112
G0 F2625 X144.02 Y214.024
G1 F900 X65.974 Y135.978 E592.91582
G1 X65.886 Y135.89
G0 F2625 X65.974 Y136.685
G1 F900 X143.313 Y214.024 E596.55911
G1 X143.401 Y214.112
G0 F2625 X142.606 Y214.024
G1 F900 X65.974 Y137.392 E600.16908
G1 X65.886 Y137.304
G0 F2625 X65.974 Y138.099
G1 F900 X141.899 Y214.024 E603.74576
G1 X141.987 Y214.112
G0 F2625 X141.192 Y214.024
G1 F900 X65.974 Y138.806 E607.28912
G1 X65.886 Y138.718
G0 F2625 X65.974 Y139.513
G1 F900 X140.485 Y214.024 E610.79918
G1 X140.573 Y214.112
G0 F2625 X139.778 Y214.024
G1 F900 X65.974 Y140.22 E614.27594
G1 X65.886 Y140.132
G0 F2625 X65.974 Y140.927
G1 F900 X139.07 Y214.024 E617.71937
G1 X139.158 Y214.112
G0 F2625 X138.363 Y214.024
G1 F900 X65.974 Y141.634 E621.12949
G1 X65.886 Y141.546
G0 F2625 X65.974 Y142.342
G1 F900 X137.656 Y214.024 E624.50628
G1 X137.744 Y214.112
G0 F2625 X136.949 Y214.024
G1 F900 X65.974 Y143.049 E627.84977
G1 X65.886 Y142.961
G0 F2625 X65.974 Y143.756
G1 F900 X136.242 Y214.024 E631.15995
G1 X136.33 Y214.112
G0 F2625 X135.535 Y214.024
G1 F900 X65.974 Y144.463 E634.43683
G1 X65.886 Y144.375
G0 F2625 X65.974 Y145.17
G1 F900 X134.828 Y214.024 E637.6804
G1 X134.916 Y214.112
G0 F2625 X134.121 Y214.024
G1 F900 X65.974 Y145.877 E640.89067
G1 X65.886 Y145.789
G0 F2625 X65.974 Y146.584
G1 F900 X133.414 Y214.024 E644.06763
G1 X133.502 Y214.112
G0 F2625 X132.706 Y214.024
G1 F900 X65.974 Y147.291 E647.21126
G1 X65.886 Y147.203
G0 F2625 X65.974 Y147.998
G1 F900 X131.999 Y214.024 E650.32159
G1 X132.087 Y214.112
G0 F2625 X131.292 Y214.024
G1 F900 X65.974 Y148.705 E653.39861
G1 X65.886 Y148.617
G0 F2625 X65.974 Y149.413
G1 F900 X130.585 Y214.024 E656.4423
G1 X130.673 Y214.112
G0 F2625 X129.878 Y214.024
G1 F900 X65.974 Y150.12 E659.45269
G1 X65.886 Y150.032
G0 F2625 X65.974 Y150.827
G1 F900 X129.171 Y214.024 E662.42977
G1 X129.259 Y214.112
G0 F2625 X128.464 Y214.024
G1 F900 X65.974 Y151.534 E665.37355
G1 X65.886 Y151.446
G0 F2625 X65.974 Y152.241
G1 F900 X127.757 Y214.024 E668.28402
G1 X127.845 Y214.112
G0 F2625 X127.05 Y214.024
G1 F900 X65.974 Y152.948 E671.16119
G1 X65.886 Y152.86
G0 F2625 X65.974 Y153.655
G1 F900 X126.343 Y214.024 E674.00505
G1 X126.431 Y214.112
G0 F2625 X125.635 Y214.024
G1 F900 X65.974 Y154.362 E676.81558
G1 X65.886 Y154.274
G0 F2625 X65.974 Y155.069
G1 F900 X124.928 Y214.024 E679.5928
G1 X125.016 Y214.112
G0 F2625 X124.221 Y214.024
G1 F900 X65.974 Y155.777 E682.3367
G1 X65.886 Y155.689
G0 F2625 X65.974 Y156.484
G1 F900 X123.514 Y214.024 E685.04729
G1 X123.602 Y214.112
G0 F2625 X122.807 Y214.024
G1 F900 X65.974 Y157.191 E687.72458
G1 X65.886 Y157.103
G0 F2625 X65.974 Y157.898
G1 F900 X122.1 Y214.024 E690.36856
G1 X122.188 Y214.112
G0 F2625 X121.393 Y214.024
G1 F900 X65.974 Y158.605 E692.97924
G1 X65.886 Y158.517
G0 F2625 X65.974 Y159.312
G1 F900 X120.686 Y214.024 E695.55661
G1 X120.774 Y214.112
G0 F2625 X119.979 Y214.024
G1 F900 X65.974 Y160.019 E698.10068
G1 X65.886 Y159.931
G0 F2625 X65.974 Y160.726
G1 F900 X119.271 Y214.024 E700.61141
