;Generated by Cura LulzBot Edition GCodeWriter Version: 2.6.52
;FLAVOR:RepRap
;TIME:11155
;Filament used: 10.9017m
;Layer height: 0.38
;Generated with Cura_SteamEngine 2.6.52
;This G-Code has been generated specifically for the LulzBot TAZ 6 with standard extruder
G26                                 ; clear potential 'probe fail' condition
G21                                 ; set units to Millimetres
M107                                ; disable fans
G90                                 ; absolute positioning
M82                                 ; set extruder to absolute mode
G92 E0                              ; set extruder position to 0
M140 S95    ; start bed heating up
G28 XY                              ; home X and Y
G1 X-19 Y258 F1000                  ; move to safe homing position
M109 R175 ; soften filament before homing Z
G28 Z                               ; home Z
M109 R185   ; wait for extruder to reach wiping temp
G1 E-30 F100                        ; retract filament
G1 X-15 Y100 F3000                  ; move above wiper pad
G1 Z1                               ; push nozzle into wiper
G1 X-17 Y95 F1000                   ; slow wipe
G1 X-17 Y90 F1000                   ; slow wipe
G1 X-17 Y85 F1000                   ; slow wipe
G1 X-15 Y90 F1000                   ; slow wipe
G1 X-17 Y80 F1000                   ; slow wipe
G1 X-15 Y95 F1000                   ; slow wipe
G1 X-17 Y75 F2000                   ; fast wipe
G1 X-15 Y65 F2000                   ; fast wipe
G1 X-17 Y70 F2000                   ; fast wipe
G1 X-15 Y60 F2000                   ; fast wipe
G1 X-17 Y55 F2000                   ; fast wipe
G1 X-15 Y50 F2000                   ; fast wipe
G1 X-17 Y40 F2000                   ; fast wipe
G1 X-15 Y45 F2000                   ; fast wipe
G1 X-17 Y35 F2000                   ; fast wipe
G1 X-15 Y40 F2000                   ; fast wipe
G1 X-17 Y70 F2000                   ; fast wipe
G1 X-15 Y30 Z2 F2000                ; fast wipe
G1 X-17 Y35 F2000                   ; fast wipe
G1 X-15 Y25 F2000                   ; fast wipe
G1 X-17 Y30 F2000                   ; fast wipe
G1 X-15 Y25 Z1.5 F1000              ; slow wipe
G1 X-17 Y23 F1000                   ; slow wipe
G1 Z10                              ; raise extruder
M109 R185  ; wait for extruder to reach probe temp
G1 X-9 Y-9                          ; move above first probe point
M204 S100                           ; set probing acceleration
G29                                 ; start auto-leveling sequence
M204 S500                           ; restore standard acceleration
G1 X0 Y0 Z15 F5000                  ; move up off last probe point
G4 S1                               ; pause
M400                                ; wait for moves to finish
M117 Heating...                     ; progress indicator message on LCD
M109 R235  ; wait for extruder to reach printing temp
M190 S95    ; wait for bed to reach printing temp
G1 Z2 E0 F75                        ; prime tiny bit of filment into the nozzle
M117 TAZ 6 Printing...              ; progress indicator message on LCD

;LAYER_COUNT:21
;LAYER:0
M107
G0 F2625 X61.619 Y61.663 Z0.425
;TYPE:SKIRT
G1 F900 X62.079 Y61.254 E0.0205
G1 X62.589 Y60.907 E0.04105
G1 X63.139 Y60.63 E0.06156
G1 X63.72 Y60.426 E0.08208
G1 X64.323 Y60.298 E0.10261
G1 X65 Y60.25 E0.12522
G1 X215 Y60.25 E5.12177
G1 X215.615 Y60.29 E5.1423
G1 X216.219 Y60.409 E5.16281
G1 X216.803 Y60.606 E5.18334
G1 X217.357 Y60.876 E5.20387
G1 X217.871 Y61.216 E5.22439
G1 X218.337 Y61.619 E5.24492
G1 X218.746 Y62.079 E5.26542
G1 X219.093 Y62.589 E5.28597
G1 X219.37 Y63.139 E5.30648
G1 X219.574 Y63.72 E5.32699
G1 X219.702 Y64.323 E5.34753
G1 X219.75 Y65 E5.37013
G1 X219.75 Y215 E10.36669
G1 X219.71 Y215.615 E10.38722
G1 X219.591 Y216.219 E10.40772
G1 X219.394 Y216.803 E10.42825
G1 X219.124 Y217.357 E10.44878
G1 X218.784 Y217.871 E10.46931
G1 X218.381 Y218.337 E10.48983
G1 X217.921 Y218.746 E10.51034
G1 X217.411 Y219.093 E10.53088
G1 X216.861 Y219.37 E10.5514
G1 X216.28 Y219.574 E10.57191
G1 X215.677 Y219.702 E10.59244
G1 X215 Y219.75 E10.61505
G1 X65 Y219.75 E15.6116
G1 X64.385 Y219.71 E15.63213
G1 X63.781 Y219.591 E15.65264
G1 X63.197 Y219.394 E15.67317
G1 X62.643 Y219.124 E15.6937
G1 X62.129 Y218.784 E15.71423
G1 X61.663 Y218.381 E15.73475
G1 X61.254 Y217.921 E15.75525
G1 X60.907 Y217.411 E15.7758
G1 X60.63 Y216.861 E15.79631
G1 X60.426 Y216.28 E15.81683
G1 X60.298 Y215.677 E15.83736
G1 X60.25 Y215 E15.85997
G1 X60.25 Y65 E20.85652
G1 X60.29 Y64.385 E20.87705
G1 X60.409 Y63.781 E20.89756
G1 X60.606 Y63.197 E20.91809
G1 X60.876 Y62.643 E20.93862
G1 X61.216 Y62.129 E20.95914
G1 X61.619 Y61.663 E20.97967
G0 F2625 X62.111 Y61.883
G1 F900 X62.565 Y61.517 E20.99909
G1 X63.064 Y61.217 E21.01849
G1 X63.6 Y60.987 E21.03791
G1 X64.162 Y60.833 E21.05732
G1 X65 Y60.75 E21.08538
G1 X215 Y60.75 E26.08193
G1 X215.581 Y60.79 E26.10133
G1 X216.152 Y60.909 E26.12076
G1 X216.701 Y61.105 E26.14018
G1 X217.217 Y61.374 E26.15956
G1 X217.693 Y61.712 E26.17901
G1 X218.117 Y62.111 E26.1984
G1 X218.483 Y62.565 E26.21782
G1 X218.783 Y63.064 E26.23722
G1 X219.013 Y63.6 E26.25665
G1 X219.167 Y64.162 E26.27606
G1 X219.25 Y65 E26.30411
G1 X219.25 Y215 E31.30066
G1 X219.21 Y215.581 E31.32006
G1 X219.091 Y216.152 E31.33949
G1 X218.895 Y216.701 E31.35891
G1 X218.626 Y217.217 E31.37829
G1 X218.288 Y217.693 E31.39774
G1 X217.889 Y218.117 E31.41713
G1 X217.435 Y218.483 E31.43656
G1 X216.936 Y218.783 E31.45595
G1 X216.4 Y219.013 E31.47538
G1 X215.838 Y219.167 E31.49479
G1 X215 Y219.25 E31.52284
G1 X65 Y219.25 E36.5194
G1 X64.419 Y219.21 E36.5388
G1 X63.848 Y219.091 E36.55822
G1 X63.299 Y218.895 E36.57764
G1 X62.783 Y218.626 E36.59703
G1 X62.307 Y218.288 E36.61647
G1 X61.883 Y217.889 E36.63587
G1 X61.517 Y217.435 E36.65529
G1 X61.217 Y216.936 E36.67469
G1 X60.987 Y216.4 E36.69412
G1 X60.833 Y215.838 E36.71353
G1 X60.75 Y215 E36.74158
G1 X60.75 Y65 E41.73813
G1 X60.79 Y64.419 E41.75753
G1 X60.909 Y63.848 E41.77696
G1 X61.105 Y63.299 E41.79638
G1 X61.374 Y62.783 E41.81576
G1 X61.712 Y62.307 E41.83521
G1 X62.111 Y61.883 E41.8546
G0 F2625 X62.601 Y62.118
G1 F900 X63.046 Y61.799 E41.87284
G1 X63.533 Y61.549 E41.89107
G1 X64.051 Y61.372 E41.90931
G1 X64.589 Y61.273 E41.92753
G1 X65 Y61.25 E41.94124
G1 X215 Y61.25 E46.9378
G1 X215.546 Y61.29 E46.95603
G1 X216.08 Y61.409 E46.97426
G1 X216.591 Y61.604 E46.99247
G1 X217.069 Y61.872 E47.01073
G1 X217.502 Y62.207 E47.02896
G1 X217.882 Y62.601 E47.0472
G1 X218.201 Y63.046 E47.06544
G1 X218.451 Y63.533 E47.08367
G1 X218.628 Y64.051 E47.10191
G1 X218.727 Y64.589 E47.12013
G1 X218.75 Y65 E47.13384
G1 X218.75 Y215 E52.13039
G1 X218.71 Y215.546 E52.14863
G1 X218.591 Y216.08 E52.16685
G1 X218.396 Y216.591 E52.18507
G1 X218.128 Y217.069 E52.20333
G1 X217.793 Y217.502 E52.22156
G1 X217.399 Y217.882 E52.2398
G1 X216.954 Y218.201 E52.25804
G1 X216.467 Y218.451 E52.27627
G1 X215.949 Y218.628 E52.2945
G1 X215.411 Y218.727 E52.31273
G1 X215 Y218.75 E52.32644
G1 X65 Y218.75 E57.32299
G1 X64.454 Y218.71 E57.34123
G1 X63.92 Y218.591 E57.35945
G1 X63.409 Y218.396 E57.37767
G1 X62.931 Y218.128 E57.39593
G1 X62.498 Y217.793 E57.41416
G1 X62.118 Y217.399 E57.4324
G1 X61.799 Y216.954 E57.45063
G1 X61.549 Y216.467 E57.46887
G1 X61.372 Y215.949 E57.4871
G1 X61.273 Y215.411 E57.50532
G1 X61.25 Y215 E57.51904
G1 X61.25 Y65 E62.51559
G1 X61.29 Y64.454 E62.53383
G1 X61.409 Y63.92 E62.55205
G1 X61.604 Y63.409 E62.57027
G1 X61.872 Y62.931 E62.58852
G1 X62.207 Y62.498 E62.60676
G1 X62.601 Y62.118 E62.62499
G0 F2625 X63.087 Y62.372
G1 F900 X63.522 Y62.106 E62.64198
G1 X63.992 Y61.91 E62.65894
G1 X64.487 Y61.791 E62.6759
G1 X65 Y61.75 E62.69304
G1 X215 Y61.75 E67.6896
G1 X215.508 Y61.79 E67.70657
G1 X216.003 Y61.909 E67.72353
G1 X216.474 Y62.104 E67.74051
G1 X216.909 Y62.37 E67.75749
G1 X217.296 Y62.7 E67.77444
G1 X217.628 Y63.087 E67.79142
G1 X217.894 Y63.522 E67.8084
G1 X218.09 Y63.992 E67.82537
G1 X218.209 Y64.487 E67.84233
G1 X218.25 Y65 E67.85947
G1 X218.25 Y215 E72.85602
G1 X218.21 Y215.508 E72.873
G1 X218.091 Y216.003 E72.88995
G1 X217.896 Y216.474 E72.90694
G1 X217.63 Y216.909 E72.92392
G1 X217.3 Y217.296 E72.94086
G1 X216.913 Y217.628 E72.95785
G1 X216.478 Y217.894 E72.97483
G1 X216.008 Y218.09 E72.99179
G1 X215.513 Y218.209 E73.00875
G1 X215 Y218.25 E73.02589
G1 X65 Y218.25 E78.02245
G1 X64.492 Y218.21 E78.03942
G1 X63.997 Y218.091 E78.05638
G1 X63.526 Y217.896 E78.07336
G1 X63.091 Y217.63 E78.09035
G1 X62.704 Y217.3 E78.10729
G1 X62.372 Y216.913 E78.12427
G1 X62.106 Y216.478 E78.14126
G1 X61.91 Y216.008 E78.15822
G1 X61.791 Y215.513 E78.17518
G1 X61.75 Y215 E78.19232
G1 X61.75 Y65 E83.18887
G1 X61.79 Y64.492 E83.20585
G1 X61.909 Y63.997 E83.22281
G1 X62.104 Y63.526 E83.23979
G1 X62.37 Y63.091 E83.25677
G1 X62.7 Y62.704 E83.27371
G1 X63.087 Y62.372 E83.2907
G0 F2625 X63.569 Y62.651
G1 F900 X63.989 Y62.443 E83.30631
G1 X64.438 Y62.308 E83.32193
G1 X65 Y62.25 E83.34075
G1 X215 Y62.25 E88.3373
G1 X215.467 Y62.29 E88.35291
G1 X215.92 Y62.409 E88.36852
G1 X216.347 Y62.602 E88.38413
G1 X216.734 Y62.866 E88.39973
G1 X217.072 Y63.191 E88.41535
G1 X217.349 Y63.569 E88.43096
G1 X217.557 Y63.989 E88.44657
G1 X217.692 Y64.438 E88.46219
G1 X217.75 Y65 E88.48101
G1 X217.75 Y215 E93.47756
G1 X217.71 Y215.467 E93.49318
G1 X217.591 Y215.92 E93.50878
G1 X217.398 Y216.347 E93.52439
G1 X217.134 Y216.734 E93.53999
G1 X216.809 Y217.072 E93.55561
G1 X216.431 Y217.349 E93.57122
G1 X216.011 Y217.557 E93.58683
G1 X215.562 Y217.692 E93.60245
G1 X215 Y217.75 E93.62127
G1 X65 Y217.75 E98.61782
G1 X64.533 Y217.71 E98.63344
G1 X64.08 Y217.591 E98.64904
G1 X63.653 Y217.398 E98.66465
G1 X63.266 Y217.134 E98.68025
G1 X62.928 Y216.809 E98.69587
G1 X62.651 Y216.431 E98.71148
G1 X62.443 Y216.011 E98.72709
G1 X62.308 Y215.562 E98.74271
G1 X62.25 Y215 E98.76153
G1 X62.25 Y65 E103.75809
G1 X62.29 Y64.533 E103.7737
G1 X62.409 Y64.08 E103.7893
G1 X62.602 Y63.653 E103.80491
G1 X62.866 Y63.266 E103.82051
G1 X63.191 Y62.928 E103.83613
G1 X63.569 Y62.651 E103.85174
G0 F2625 X63.679 Y63.179
G1 F900 X64.044 Y62.963 E103.86587
G1 X64.443 Y62.82 E103.87999
G1 X65 Y62.75 E103.89869
G1 X215 Y62.75 E108.89524
G1 X215.422 Y62.79 E108.90936
G1 X215.829 Y62.908 E108.92348
G1 X216.206 Y63.101 E108.93759
G1 X216.541 Y63.361 E108.95171
G1 X216.821 Y63.679 E108.96583
G1 X217.037 Y64.044 E108.97996
G1 X217.18 Y64.443 E108.99407
G1 X217.25 Y65 E109.01277
G1 X217.25 Y215 E114.00933
G1 X217.21 Y215.422 E114.02345
G1 X217.092 Y215.829 E114.03756
G1 X216.899 Y216.206 E114.05167
G1 X216.639 Y216.541 E114.0658
G1 X216.321 Y216.821 E114.07991
G1 X215.956 Y217.037 E114.09404
G1 X215.557 Y217.18 E114.10816
G1 X215 Y217.25 E114.12686
G1 X65 Y217.25 E119.12341
G1 X64.578 Y217.21 E119.13753
G1 X64.171 Y217.092 E119.15165
G1 X63.794 Y216.899 E119.16575
G1 X63.459 Y216.639 E119.17988
G1 X63.179 Y216.321 E119.19399
G1 X62.963 Y215.956 E119.20812
G1 X62.82 Y215.557 E119.22224
G1 X62.75 Y215 E119.24094
G1 X62.75 Y65 E124.23749
G1 X62.79 Y64.578 E124.25161
G1 X62.908 Y64.171 E124.26573
G1 X63.101 Y63.794 E124.27984
G1 X63.361 Y63.459 E124.29396
G1 X63.679 Y63.179 E124.30808
G0 F2625 X63.852 Y63.679
G1 F900 X64.159 Y63.465 E124.32054
G1 X64.504 Y63.322 E124.33298
G1 X65 Y63.25 E124.34968
G1 X215 Y63.25 E129.34623
G1 X215.371 Y63.29 E129.35866
G1 X215.726 Y63.408 E129.37112
G1 X216.048 Y63.598 E129.38358
G1 X216.321 Y63.852 E129.396
G1 X216.535 Y64.159 E129.40846
G1 X216.678 Y64.504 E129.4209
G1 X216.75 Y65 E129.4376
G1 X216.75 Y215 E134.43415
G1 X216.71 Y215.371 E134.44658
G1 X216.592 Y215.726 E134.45904
G1 X216.402 Y216.048 E134.4715
G1 X216.148 Y216.321 E134.48392
G1 X215.841 Y216.535 E134.49638
G1 X215.496 Y216.678 E134.50882
G1 X215 Y216.75 E134.52552
G1 X65 Y216.75 E139.52207
G1 X64.629 Y216.71 E139.5345
G1 X64.274 Y216.592 E139.54696
G1 X63.952 Y216.402 E139.55942
G1 X63.679 Y216.148 E139.57184
G1 X63.465 Y215.841 E139.5843
G1 X63.322 Y215.496 E139.59675
G1 X63.25 Y215 E139.61344
G1 X63.25 Y65 E144.60999
G1 X63.29 Y64.629 E144.62242
G1 X63.408 Y64.274 E144.63489
G1 X63.598 Y63.952 E144.64734
G1 X63.852 Y63.679 E144.65976
G0 F2625 X64.338 Y63.94
G1 F900 X64.625 Y63.808 E144.67028
G1 X65 Y63.75 E144.68292
G1 X215 Y63.75 E149.67948
G1 X215.313 Y63.79 E149.68999
G1 X215.606 Y63.907 E149.7005
G1 X215.861 Y64.093 E149.71101
G1 X216.06 Y64.338 E149.72153
G1 X216.192 Y64.625 E149.73205
G1 X216.25 Y65 E149.74469
G1 X216.25 Y215 E154.74124
G1 X216.21 Y215.313 E154.75175
G1 X216.093 Y215.606 E154.76226
G1 X215.907 Y215.861 E154.77278
G1 X215.662 Y216.06 E154.78329
G1 X215.375 Y216.192 E154.79381
G1 X215 Y216.25 E154.80645
G1 X65 Y216.25 E159.80301
G1 X64.687 Y216.21 E159.81352
G1 X64.394 Y216.093 E159.82403
G1 X64.139 Y215.907 E159.83454
G1 X63.94 Y215.662 E159.84505
G1 X63.808 Y215.375 E159.85558
G1 X63.75 Y215 E159.86822
G1 X63.75 Y65 E164.86477
G1 X63.79 Y64.687 E164.87528
G1 X63.907 Y64.394 E164.88579
G1 X64.093 Y64.139 E164.8963
G1 X64.338 Y63.94 E164.90682
G0 F2625 X65 Y64.25
G1 F900 X215 Y64.25 E169.90337
G1 X215.241 Y64.29 E169.91151
G1 X215.456 Y64.405 E169.91963
G1 X215.623 Y64.583 E169.92776
G1 X215.724 Y64.805 E169.93589
G1 X215.75 Y65 E169.94244
G1 X215.75 Y215 E174.93899
G1 X215.71 Y215.241 E174.94713
G1 X215.595 Y215.456 E174.95525
G1 X215.417 Y215.623 E174.96338
G1 X215.195 Y215.724 E174.97151
G1 X215 Y215.75 E174.97806
G1 X65 Y215.75 E179.97461
G1 X64.759 Y215.71 E179.98275
G1 X64.544 Y215.595 E179.99087
G1 X64.377 Y215.417 E179.999
G1 X64.276 Y215.195 E180.00713
G1 X64.25 Y215 E180.01368
G1 X64.25 Y65 E185.01024
G1 X64.29 Y64.759 E185.01837
G1 X64.405 Y64.544 E185.0265
G1 X64.583 Y64.377 E185.03463
G1 X64.805 Y64.276 E185.04275
G1 X65 Y64.25 E185.0493
G0 F2625 X65 Y64.75
G1 F900 X215 Y64.75 E190.04586
G1 X215.134 Y64.789 E190.05051
G1 X215.227 Y64.895 E190.0552
G1 X215.25 Y65 E190.05878
G1 X215.25 Y215 E195.05534
G1 X215.211 Y215.134 E195.05999
G1 X215.105 Y215.227 E195.06468
G1 X215 Y215.25 E195.06826
G1 X65 Y215.25 E200.06482
G1 X64.866 Y215.211 E200.06947
G1 X64.773 Y215.105 E200.07416
G1 X64.75 Y215 E200.07774
G1 X64.75 Y65 E205.0743
G1 X64.789 Y64.866 E205.07895
G1 X64.895 Y64.773 E205.08364
G1 X65 Y64.75 E205.08723
G0 F2625 X65.25 Y65.25
;TYPE:WALL-OUTER
G1 F900 X214.75 Y65.25 E210.06712
G1 X214.75 Y214.75 E215.04702
G1 X65.25 Y214.75 E220.02692
G1 X65.25 Y65.25 E225.00682
G0 F2625 X65.5 Y65.25
G0 X65.75 Y65.75
;TYPE:WALL-INNER
G1 F900 X214.25 Y65.75 E229.95341
G1 X214.25 Y214.25 E234.9
G1 X65.75 Y214.25 E239.84659
G1 X65.75 Y65.75 E244.79318
G0 F2625 X65.974 Y65.974
;TYPE:SKIN
G1 F900 X214.024 Y214.024 E251.76751
G1 X214.112 Y214.112
G0 F2625 X213.317 Y214.024
G1 F900 X65.974 Y66.681 E258.70854
G1 X65.886 Y66.593
G0 F2625 X65.974 Y67.388
G1 F900 X212.61 Y214.024 E265.61626
G1 X212.698 Y214.112
G0 F2625 X211.902 Y214.024
G1 F900 X65.974 Y68.095 E272.49066
G1 X65.886 Y68.007
G0 F2625 X65.974 Y68.802
G1 F900 X211.195 Y214.024 E279.33174
G1 X211.283 Y214.112
G0 F2625 X210.488 Y214.024
G1 F900 X65.974 Y69.51 E286.13951
G1 X65.886 Y69.422
G0 F2625 X65.974 Y70.217
G1 F900 X209.781 Y214.024 E292.91396
G1 X209.869 Y214.112
G0 F2625 X209.074 Y214.024
G1 F900 X65.974 Y70.924 E299.65511
G1 X65.886 Y70.836
G0 F2625 X65.974 Y71.631
G1 F900 X208.367 Y214.024 E306.36295
G1 X208.455 Y214.112
G0 F2625 X207.66 Y214.024
G1 F900 X65.974 Y72.338 E313.03749
G1 X65.886 Y72.25
G0 F2625 X65.974 Y73.045
G1 F900 X206.953 Y214.024 E319.67873
G1 X207.041 Y214.112
G0 F2625 X206.246 Y214.024
G1 F900 X65.974 Y73.752 E326.28665
G1 X65.886 Y73.664
G0 F2625 X65.974 Y74.459
G1 F900 X205.538 Y214.024 E332.86125
G1 X205.626 Y214.112
G0 F2625 X204.831 Y214.024
G1 F900 X65.974 Y75.166 E339.40255
G1 X65.886 Y75.078
G0 F2625 X65.974 Y75.873
G1 F900 X204.124 Y214.024 E345.91054
G1 X204.212 Y214.112
G0 F2625 X203.417 Y214.024
G1 F900 X65.974 Y76.581 E352.3852
G1 X65.886 Y76.493
G0 F2625 X65.974 Y77.288
G1 F900 X202.71 Y214.024 E358.82655
G1 X202.798 Y214.112
G0 F2625 X202.003 Y214.024
G1 F900 X65.974 Y77.995 E365.2346
G1 X65.886 Y77.907
G0 F2625 X65.974 Y78.702
G1 F900 X201.296 Y214.024 E371.60934
G1 X201.384 Y214.112
G0 F2625 X200.589 Y214.024
