;Generated by Cura LulzBot Edition GCodeWriter Version: 2.6.52
;FLAVOR:RepRap
;TIME:3954
;Filament used: 0.909081m
;Layer height: 0.18
;Generated with Cura_SteamEngine 2.6.52
;This G-Code has been generated specifically for the LulzBot TAZ 6 with standard extruder
G26                                 ; clear potential 'probe fail' condition
G21                                 ; set units to Millimetres
M107                                ; disable fans
G90                                 ; absolute positioning
M82                                 ; set extruder to absolute mode
G92 E0                              ; set extruder position to 0
M140 S110    ; start bed heating up
G28 XY                              ; home X and Y
G1 X-19 Y258 F1000                  ; move to safe homing position
M109 R175 ; soften filament before homing Z
G28 Z                               ; home Z
M109 R170   ; wait for extruder to reach wiping temp
G1 E-30 F100                        ; retract filament
G1 X-15 Y100 F3000                  ; move above wiper pad
G1 Z1                               ; push nozzle into wiper
G1 X-17 Y95 F1000                   ; slow wipe
G1 X-17 Y90 F1000                   ; slow wipe
G1 X-17 Y85 F1000                   ; slow wipe
G1 X-15 Y90 F1000                   ; slow wipe
G1 X-17 Y80 F1000                   ; slow wipe
G1 X-15 Y95 F1000                   ; slow wipe
G1 X-17 Y75 F2000                   ; fast wipe
G1 X-15 Y65 F2000                   ; fast wipe
G1 X-17 Y70 F2000                   ; fast wipe
G1 X-15 Y60 F2000                   ; fast wipe
G1 X-17 Y55 F2000                   ; fast wipe
G1 X-15 Y50 F2000                   ; fast wipe
G1 X-17 Y40 F2000                   ; fast wipe
G1 X-15 Y45 F2000                   ; fast wipe
G1 X-17 Y35 F2000                   ; fast wipe
G1 X-15 Y40 F2000                   ; fast wipe
G1 X-17 Y70 F2000                   ; fast wipe
G1 X-15 Y30 Z2 F2000                ; fast wipe
G1 X-17 Y35 F2000                   ; fast wipe
G1 X-15 Y25 F2000                   ; fast wipe
G1 X-17 Y30 F2000                   ; fast wipe
G1 X-15 Y25 Z1.5 F1000              ; slow wipe
G1 X-17 Y23 F1000                   ; slow wipe
G1 Z10                              ; raise extruder
M109 R170  ; wait for extruder to reach probe temp
G1 X-9 Y-9                          ; move above first probe point
M204 S100                           ; set probing acceleration
G29                                 ; start auto-leveling sequence
M204 S500                           ; restore standard acceleration
G1 X0 Y0 Z15 F5000                  ; move up off last probe point
G4 S1                               ; pause
M400                                ; wait for moves to finish
M117 Heating...                     ; progress indicator message on LCD
M109 R240  ; wait for extruder to reach printing temp
M190 S110    ; wait for bed to reach printing temp
G1 Z2 E0 F75                        ; prime tiny bit of filment into the nozzle
M117 TAZ 6 Printing...              ; progress indicator message on LCD

;LAYER_COUNT:146
;LAYER:0
M107
G0 F2625 X113.463 Y123.62 Z0.425
;TYPE:SKIRT
G1 F900 X113.939 Y123.229 E0.02052
G1 X114.461 Y122.902 E0.04104
G1 X115.022 Y122.646 E0.06158
G1 X115.61 Y122.464 E0.08208
G1 X116.218 Y122.36 E0.10263
G1 X116.833 Y122.335 E0.12313
G1 X117.706 Y122.439 E0.15242
G1 X117.912 Y122.483 E0.15943
G1 X118.221 Y122.56 E0.17004
G1 X122.6 Y123.808 E0.32172
G1 X122.241 Y121.89 E0.38671
G1 X122.167 Y121.278 E0.40725
G1 X122.173 Y120.662 E0.42777
G1 X122.259 Y120.052 E0.44829
G1 X122.422 Y119.458 E0.46881
G1 X122.662 Y118.89 E0.48935
G1 X122.973 Y118.358 E0.50987
G1 X123.35 Y117.871 E0.53039
G1 X123.787 Y117.436 E0.55093
G1 X124.276 Y117.062 E0.57143
G1 X124.81 Y116.755 E0.59195
G1 X125.379 Y116.519 E0.61247
G1 X125.974 Y116.358 E0.633
G1 X126.584 Y116.276 E0.65351
G1 X127.201 Y116.274 E0.67406
G1 X127.812 Y116.351 E0.69457
G1 X128.408 Y116.507 E0.71509
G1 X128.979 Y116.739 E0.73562
G1 X129.5 Y117.033 E0.75555
G1 X138.663 Y122.992 E1.11964
G1 X140.041 Y123.805 E1.17294
G1 X150.497 Y117.029 E1.58797
G1 X151.034 Y116.728 E1.60848
G1 X151.606 Y116.499 E1.629
G1 X152.203 Y116.347 E1.64952
G1 X152.815 Y116.272 E1.67006
G1 X153.431 Y116.278 E1.69058
G1 X154.041 Y116.363 E1.7111
G1 X154.635 Y116.527 E1.73162
G1 X155.203 Y116.766 E1.75215
G1 X155.735 Y117.076 E1.77266
G1 X156.223 Y117.453 E1.7932
G1 X156.657 Y117.89 E1.81372
G1 X157.032 Y118.379 E1.83424
G1 X157.34 Y118.913 E1.85478
G1 X157.576 Y119.482 E1.8753
G1 X157.736 Y120.077 E1.89582
G1 X157.819 Y120.687 E1.91633
G1 X157.821 Y121.303 E1.93685
G1 X157.75 Y121.885 E1.95638
G1 X157.389 Y123.821 E2.02198
G1 X161.992 Y122.516 E2.18135
G1 X162.594 Y122.387 E2.20186
G1 X163.208 Y122.337 E2.22238
G1 X163.823 Y122.366 E2.24289
G1 X164.43 Y122.476 E2.26343
G1 X165.017 Y122.662 E2.28395
G1 X165.575 Y122.923 E2.30447
G1 X166.095 Y123.255 E2.32502
G1 X166.567 Y123.65 E2.34552
G1 X166.984 Y124.104 E2.36605
G1 X167.339 Y124.607 E2.38656
G1 X167.626 Y125.153 E2.40711
G1 X167.839 Y125.73 E2.42759
G1 X167.977 Y126.331 E2.44813
G1 X168.035 Y126.944 E2.46865
G1 X168.013 Y127.56 E2.48918
G1 X167.912 Y128.168 E2.50971
G1 X167.733 Y128.757 E2.53021
G1 X167.479 Y129.319 E2.55076
G1 X167.174 Y129.817 E2.57021
G1 X162.918 Y135.875 E2.81683
G1 X166.582 Y136.946 E2.94398
G1 X167.16 Y137.157 E2.96448
G1 X167.707 Y137.441 E2.98501
G1 X168.213 Y137.793 E3.00554
G1 X168.668 Y138.208 E3.02605
G1 X169.066 Y138.678 E3.04657
G1 X169.4 Y139.196 E3.0671
G1 X169.664 Y139.753 E3.08763
G1 X169.854 Y140.339 E3.10815
G1 X169.966 Y140.945 E3.12868
G1 X169.999 Y141.56 E3.1492
G1 X169.952 Y142.174 E3.16971
G1 X169.825 Y142.777 E3.19023
G1 X169.622 Y143.359 E3.21077
G1 X169.346 Y143.909 E3.23126
G1 X169 Y144.419 E3.25179
G1 X168.591 Y144.88 E3.27232
G1 X168.126 Y145.285 E3.29286
G1 X167.613 Y145.625 E3.31336
G1 X166.83 Y145.984 E3.34206
G1 X166.324 Y146.162 E3.35992
G1 X166.509 Y146.647 E3.37721
G1 X166.653 Y147.247 E3.39777
G1 X166.717 Y147.859 E3.41827
G1 X166.702 Y148.475 E3.43879
G1 X166.607 Y149.084 E3.45932
G1 X166.434 Y149.675 E3.47983
G1 X166.186 Y150.239 E3.50036
G1 X165.867 Y150.766 E3.52088
G1 X165.482 Y151.248 E3.54143
G1 X165.039 Y151.675 E3.56192
G1 X164.544 Y152.042 E3.58245
G1 X164.005 Y152.341 E3.60298
G1 X163.224 Y152.631 E3.63073
G1 X161.869 Y153.002 E3.67753
G1 X162.187 Y153.673 E3.70226
G1 X162.415 Y154.245 E3.72277
G1 X162.566 Y154.843 E3.74332
G1 X162.633 Y155.359 E3.76065
G1 X162.746 Y156.889 E3.81175
G1 X162.752 Y157.505 E3.83227
G1 X162.677 Y158.117 E3.85281
G1 X162.524 Y158.714 E3.87334
G1 X162.295 Y159.286 E3.89387
G1 X161.994 Y159.823 E3.91437
G1 X161.626 Y160.317 E3.93489
G1 X161.198 Y160.76 E3.95541
G1 X160.715 Y161.143 E3.97594
G1 X160.187 Y161.46 E3.99646
G1 X159.622 Y161.707 E4.017
G1 X159.03 Y161.878 E4.03752
G1 X158.421 Y161.971 E4.05804
G1 X157.805 Y161.985 E4.07857
G1 X157.193 Y161.918 E4.09908
G1 X156.594 Y161.773 E4.11961
G1 X155.831 Y161.46 E4.14708
G1 X155.426 Y161.251 E4.16226
G1 X154.898 Y160.934 E4.18277
G1 X154.863 Y160.906 E4.18427
G1 X154.805 Y161.023 E4.18862
G1 X154.461 Y161.535 E4.20916
G1 X154.053 Y161.997 E4.22969
G1 X153.59 Y162.403 E4.25021
G1 X153.078 Y162.745 E4.27072
G1 X152.525 Y163.018 E4.29126
G1 X151.942 Y163.218 E4.31179
G1 X151.338 Y163.34 E4.33232
G1 X150.724 Y163.383 E4.35282
G1 X150.109 Y163.346 E4.37334
G1 X149.504 Y163.23 E4.39386
G1 X148.919 Y163.036 E4.41439
G1 X148.56 Y162.864 E4.42765
G1 X147.722 Y163.702 E4.46713
G1 X147.259 Y164.108 E4.48764
G1 X147.002 Y164.293 E4.49819
G1 X145.881 Y165.042 E4.5431
G1 X145.347 Y165.35 E4.56363
G1 X145.053 Y165.483 E4.57438
G1 X143.807 Y165.997 E4.61928
G1 X143.224 Y166.195 E4.63979
G1 X142.913 Y166.267 E4.65042
G1 X141.591 Y166.527 E4.6953
G1 X140.98 Y166.606 E4.71582
G1 X140.67 Y166.616 E4.72615
G1 X139.323 Y166.615 E4.77102
G1 X138.41 Y166.526 E4.80158
G1 X137.088 Y166.266 E4.84646
G1 X136.493 Y166.108 E4.86697
G1 X136.194 Y165.996 E4.8776
G1 X134.948 Y165.482 E4.9225
G1 X134.394 Y165.211 E4.94304
G1 X134.12 Y165.041 E4.95378
G1 X132.999 Y164.292 E4.99869
G1 X132.51 Y163.917 E5.01922
G1 X132.279 Y163.701 E5.02975
G1 X131.438 Y162.86 E5.06937
G1 X130.883 Y163.099 E5.0895
G1 X130.291 Y163.268 E5.11001
G1 X129.681 Y163.358 E5.13055
G1 X129.065 Y163.369 E5.15107
G1 X128.453 Y163.299 E5.17159
G1 X127.855 Y163.152 E5.1921
G1 X127.281 Y162.928 E5.21263
G1 X126.741 Y162.631 E5.23315
G1 X126.243 Y162.267 E5.2537
G1 X125.797 Y161.842 E5.27422
G1 X125.41 Y161.363 E5.29474
G1 X125.129 Y160.905 E5.31263
G1 X125.027 Y160.988 E5.31702
G1 X124.504 Y161.314 E5.33754
G1 X123.969 Y161.56 E5.35716
G1 X123.697 Y161.665 E5.36687
G1 X123.109 Y161.849 E5.38739
G1 X122.502 Y161.956 E5.40792
G1 X121.886 Y161.983 E5.42846
G1 X121.272 Y161.93 E5.44899
G1 X120.671 Y161.798 E5.46949
G1 X120.091 Y161.59 E5.49001
G1 X119.543 Y161.308 E5.51054
G1 X119.036 Y160.957 E5.53108
G1 X118.579 Y160.544 E5.5516
G1 X118.179 Y160.075 E5.57213
G1 X117.844 Y159.559 E5.59263
G1 X117.578 Y159.003 E5.61316
G1 X117.386 Y158.417 E5.6337
G1 X117.271 Y157.812 E5.65421
G1 X117.239 Y157.06 E5.67929
G1 X117.28 Y155.943 E5.71652
G1 X117.343 Y155.33 E5.73704
G1 X117.445 Y154.864 E5.75293
G1 X117.666 Y154.056 E5.78084
G1 X117.867 Y153.473 E5.80138
G1 X118.106 Y152.993 E5.81924
G1 X116.785 Y152.634 E5.86484
G1 X116.202 Y152.435 E5.88536
G1 X115.65 Y152.161 E5.90589
G1 X115.138 Y151.819 E5.9264
G1 X114.674 Y151.413 E5.94694
G1 X114.267 Y150.95 E5.96747
G1 X113.924 Y150.439 E5.98797
G1 X113.649 Y149.888 E6.00848
G1 X113.448 Y149.305 E6.02903
G1 X113.324 Y148.702 E6.04953
G1 X113.279 Y148.087 E6.07007
G1 X113.314 Y147.472 E6.09059
G1 X113.429 Y146.867 E6.1111
G1 X113.621 Y146.281 E6.13165
G1 X113.674 Y146.17 E6.13574
G1 X113.169 Y145.992 E6.15358
G1 X112.602 Y145.75 E6.17411
G1 X112.072 Y145.437 E6.19462
G1 X111.586 Y145.058 E6.21515
G1 X111.154 Y144.619 E6.23566
G1 X110.782 Y144.128 E6.25618
G1 X110.476 Y143.592 E6.27674
G1 X110.243 Y143.022 E6.29725
G1 X110.085 Y142.427 E6.31776
G1 X110.006 Y141.816 E6.33828
G1 X110.006 Y141.2 E6.3588
G1 X110.086 Y140.589 E6.37933
G1 X110.245 Y139.993 E6.39988
G1 X110.479 Y139.424 E6.42037
G1 X110.785 Y138.889 E6.4409
G1 X111.158 Y138.398 E6.46144
G1 X111.591 Y137.96 E6.48195
G1 X112.077 Y137.582 E6.50246
G1 X112.608 Y137.269 E6.523
G1 X113.415 Y136.951 E6.55189
G1 X117.075 Y135.882 E6.6789
G1 X112.823 Y129.808 E6.92587
G1 X112.503 Y129.281 E6.94641
G1 X112.254 Y128.718 E6.96692
G1 X112.08 Y128.127 E6.98744
G1 X111.984 Y127.518 E7.00798
G1 X111.967 Y126.902 E7.0285
G1 X112.031 Y126.289 E7.04903
G1 X112.173 Y125.69 E7.06954
G1 X112.392 Y125.114 E7.09007
G1 X112.683 Y124.571 E7.11059
G1 X113.042 Y124.07 E7.13112
G1 X113.463 Y123.62 E7.15164
G0 F2625 X113.638 Y124.151
G1 F900 X114.068 Y123.758 E7.17105
G1 X114.548 Y123.427 E7.19047
G1 X115.069 Y123.165 E7.2099
G1 X115.62 Y122.977 E7.22929
G1 X116.192 Y122.866 E7.2487
G1 X116.774 Y122.834 E7.26811
G1 X117.602 Y122.928 E7.29587
G1 X117.808 Y122.972 E7.30289
G1 X118.084 Y123.041 E7.31237
G1 X123.241 Y124.51 E7.49098
G1 X122.733 Y121.798 E7.58289
G1 X122.665 Y121.219 E7.60231
G1 X122.677 Y120.636 E7.62173
G1 X122.769 Y120.061 E7.64113
G1 X122.938 Y119.503 E7.66055
G1 X123.182 Y118.974 E7.67996
G1 X123.496 Y118.483 E7.69937
G1 X123.875 Y118.04 E7.71879
G1 X124.31 Y117.653 E7.73818
G1 X124.795 Y117.329 E7.75761
G1 X125.319 Y117.074 E7.77703
G1 X125.873 Y116.893 E7.79644
G1 X126.446 Y116.79 E7.81583
G1 X127.029 Y116.767 E7.83527
G1 X127.609 Y116.823 E7.85468
G1 X128.176 Y116.958 E7.87409
G1 X128.719 Y117.169 E7.8935
G1 X129.227 Y117.452 E7.91287
G1 X138.403 Y123.419 E8.27747
G1 X140.042 Y124.386 E8.34086
G1 X140.268 Y124.255 E8.34956
G1 X150.769 Y117.449 E8.76639
G1 X151.278 Y117.166 E8.78579
G1 X151.822 Y116.956 E8.80522
G1 X152.389 Y116.822 E8.82462
G1 X152.969 Y116.766 E8.84403
G1 X153.551 Y116.791 E8.86344
G1 X154.125 Y116.895 E8.88287
G1 X154.678 Y117.077 E8.90226
G1 X155.202 Y117.333 E8.92169
G1 X155.686 Y117.658 E8.94111
G1 X156.121 Y118.046 E8.96052
G1 X156.498 Y118.489 E8.9799
G1 X156.812 Y118.981 E8.99934
G1 X157.055 Y119.51 E9.01873
G1 X157.223 Y120.068 E9.03815
G1 X157.314 Y120.644 E9.05757
G1 X157.325 Y121.226 E9.07696
G1 X157.258 Y121.793 E9.09598
G1 X156.75 Y124.522 E9.18844
G1 X162.128 Y122.997 E9.37465
G1 X162.698 Y122.877 E9.39405
G1 X163.28 Y122.836 E9.41349
G1 X163.861 Y122.875 E9.43289
G1 X164.432 Y122.993 E9.45231
G1 X164.981 Y123.188 E9.47171
G1 X165.498 Y123.456 E9.49111
G1 X165.974 Y123.793 E9.51054
G1 X166.399 Y124.192 E9.52996
G1 X166.766 Y124.644 E9.54935
G1 X167.067 Y125.143 E9.56876
G1 X167.297 Y125.679 E9.58819
G1 X167.452 Y126.24 E9.60758
G1 X167.529 Y126.818 E9.627
G1 X167.525 Y127.401 E9.64642
G1 X167.442 Y127.978 E9.66584
G1 X167.281 Y128.538 E9.68525
G1 X167.045 Y129.071 E9.70467
G1 X166.765 Y129.529 E9.72255
G1 X162.107 Y136.159 E9.99245
G1 X166.441 Y137.426 E10.14286
G1 X166.988 Y137.627 E10.16227
G1 X167.502 Y137.901 E10.18168
G1 X167.974 Y138.244 E10.20111
G1 X168.395 Y138.647 E10.22053
G1 X168.756 Y139.104 E10.23992
G1 X169.051 Y139.606 E10.25932
G1 X169.275 Y140.144 E10.27873
G1 X169.424 Y140.708 E10.29816
G1 X169.493 Y141.287 E10.31759
G1 X169.483 Y141.869 E10.33698
G1 X169.394 Y142.445 E10.35639
G1 X169.226 Y143.003 E10.3758
G1 X168.984 Y143.533 E10.39521
G1 X168.671 Y144.025 E10.41463
G1 X168.294 Y144.469 E10.43404
G1 X167.86 Y144.858 E10.45345
G1 X167.377 Y145.184 E10.47286
G1 X166.663 Y145.513 E10.49905
G1 X165.625 Y145.879 E10.53571
G1 X165.886 Y146.395 E10.55497
G1 X166.076 Y146.947 E10.57442
G1 X166.188 Y147.518 E10.5938
G1 X166.221 Y148.1 E10.61322
G1 X166.174 Y148.681 E10.63264
G1 X166.048 Y149.25 E10.65205
G1 X165.845 Y149.796 E10.67145
G1 X165.57 Y150.31 E10.69087
G1 X165.227 Y150.781 E10.71028
G1 X164.822 Y151.201 E10.72971
G1 X164.364 Y151.561 E10.74912
G1 X163.861 Y151.855 E10.76853
G1 X163.092 Y152.148 E10.79594
G1 X161.126 Y152.686 E10.86383
G1 X161.346 Y153.065 E10.87843
G1 X161.736 Y153.887 E10.90874
G1 X161.949 Y154.43 E10.92817
G1 X162.086 Y154.996 E10.94757
G1 X162.134 Y155.396 E10.96099
G1 X162.247 Y156.926 E11.01209
G1 X162.25 Y157.509 E11.03151
G1 X162.174 Y158.086 E11.0509
G1 X162.019 Y158.648 E11.07031
G1 X161.788 Y159.183 E11.08973
G1 X161.487 Y159.682 E11.10914
G1 X161.12 Y160.135 E11.12856
G1 X160.694 Y160.533 E11.14798
G1 X160.218 Y160.87 E11.1674
G1 X159.701 Y161.138 E11.1868
G1 X159.152 Y161.332 E11.2062
G1 X158.581 Y161.45 E11.22562
G1 X158 Y161.489 E11.24502
G1 X157.418 Y161.448 E11.26445
G1 X156.848 Y161.327 E11.28386
G1 X156.06 Y161.016 E11.31208
G1 X155.655 Y160.807 E11.32726
G1 X155.157 Y160.505 E11.34666
G1 X154.702 Y160.135 E11.3662
G1 X154.675 Y160.11 E11.36742
G1 X154.594 Y160.337 E11.37545
G1 X154.324 Y160.853 E11.39485
G1 X153.986 Y161.328 E11.41427
G1 X153.587 Y161.752 E11.43366
G1 X153.133 Y162.118 E11.45309
G1 X152.633 Y162.418 E11.47251
G1 X152.097 Y162.647 E11.49193
G1 X151.535 Y162.8 E11.51133
G1 X150.957 Y162.875 E11.53074
G1 X150.375 Y162.871 E11.55013
G1 X149.798 Y162.786 E11.56956
G1 X149.238 Y162.624 E11.58898
G1 X148.706 Y162.386 E11.60839
G1 X148.454 Y162.233 E11.61821
G1 X148.321 Y162.395 E11.62519
G1 X147.368 Y163.348 E11.67009
G1 X146.724 Y163.877 E11.69785
G1 X145.603 Y164.626 E11.74276
G1 X144.863 Y165.021 E11.7707
G1 X143.617 Y165.535 E11.8156
G1 X142.816 Y165.776 E11.84346
G1 X141.494 Y166.036 E11.88834
G1 X140.671 Y166.116 E11.91588
G1 X139.324 Y166.115 E11.96075
G1 X138.507 Y166.035 E11.9881
G1 X137.185 Y165.775 E12.03298
G1 X136.384 Y165.534 E12.06084
G1 X135.138 Y165.02 E12.10574
G1 X134.398 Y164.625 E12.13368
G1 X133.277 Y163.876 E12.17859
G1 X132.633 Y163.347 E12.20635
G1 X131.68 Y162.394 E12.25124
G1 X131.538 Y162.221 E12.2587
G1 X131.194 Y162.424 E12.272
G1 X130.656 Y162.649 E12.29143
G1 X130.093 Y162.798 E12.31083
G1 X129.514 Y162.868 E12.33025
G1 X128.931 Y162.859 E12.34968
G1 X128.356 Y162.77 E12.36906
G1 X127.797 Y162.603 E12.38849
G1 X127.267 Y162.361 E12.4079
G1 X126.775 Y162.049 E12.42731
G1 X126.33 Y161.673 E12.44671
G1 X125.941 Y161.239 E12.46613
G1 X125.614 Y160.756 E12.48556
