;Generated by Cura LulzBot Edition GCodeWriter Version: 2.6.52
;FLAVOR:RepRap
;TIME:8926
;Filament used: 3.09659m
;Layer height: 0.18
;Generated with Cura_SteamEngine 2.6.52
;This G-Code has been generated specifically for the LulzBot TAZ 6 with standard extruder
G26                                 ; clear potential 'probe fail' condition
G21                                 ; set units to Millimetres
M107                                ; disable fans
G90                                 ; absolute positioning
M82                                 ; set extruder to absolute mode
G92 E0                              ; set extruder position to 0
M140 S110    ; start bed heating up
G28 XY                              ; home X and Y
G1 X-19 Y258 F1000                  ; move to safe homing position
M109 R175 ; soften filament before homing Z
G28 Z                               ; home Z
M109 R170   ; wait for extruder to reach wiping temp
G1 E-30 F100                        ; retract filament
G1 X-15 Y100 F3000                  ; move above wiper pad
G1 Z1                               ; push nozzle into wiper
G1 X-17 Y95 F1000                   ; slow wipe
G1 X-17 Y90 F1000                   ; slow wipe
G1 X-17 Y85 F1000                   ; slow wipe
G1 X-15 Y90 F1000                   ; slow wipe
G1 X-17 Y80 F1000                   ; slow wipe
G1 X-15 Y95 F1000                   ; slow wipe
G1 X-17 Y75 F2000                   ; fast wipe
G1 X-15 Y65 F2000                   ; fast wipe
G1 X-17 Y70 F2000                   ; fast wipe
G1 X-15 Y60 F2000                   ; fast wipe
G1 X-17 Y55 F2000                   ; fast wipe
G1 X-15 Y50 F2000                   ; fast wipe
G1 X-17 Y40 F2000                   ; fast wipe
G1 X-15 Y45 F2000                   ; fast wipe
G1 X-17 Y35 F2000                   ; fast wipe
G1 X-15 Y40 F2000                   ; fast wipe
G1 X-17 Y70 F2000                   ; fast wipe
G1 X-15 Y30 Z2 F2000                ; fast wipe
G1 X-17 Y35 F2000                   ; fast wipe
G1 X-15 Y25 F2000                   ; fast wipe
G1 X-17 Y30 F2000                   ; fast wipe
G1 X-15 Y25 Z1.5 F1000              ; slow wipe
G1 X-17 Y23 F1000                   ; slow wipe
G1 Z10                              ; raise extruder
M109 R170  ; wait for extruder to reach probe temp
G1 X-9 Y-9                          ; move above first probe point
M204 S100                           ; set probing acceleration
G29                                 ; start auto-leveling sequence
M204 S500                           ; restore standard acceleration
G1 X0 Y0 Z15 F5000                  ; move up off last probe point
G4 S1                               ; pause
M400                                ; wait for moves to finish
M117 Heating...                     ; progress indicator message on LCD
M109 R240  ; wait for extruder to reach printing temp
M190 S110    ; wait for bed to reach printing temp
G1 Z2 E0 F75                        ; prime tiny bit of filment into the nozzle
M117 TAZ 6 Printing...              ; progress indicator message on LCD

;LAYER_COUNT:24
;LAYER:0
M107
G0 F2625 X90.599 Y120.748 Z0.425
;TYPE:SKIRT
G1 F900 X99.923 Y113.425 E0.39493
G1 X100.572 Y112.997 E0.42082
G1 X101.055 Y112.732 E0.43917
G1 X101.749 Y112.431 E0.46437
G1 X101.915 Y112.202 E0.47379
G1 X102.602 Y111.389 E0.50925
G1 X103.029 Y110.945 E0.52977
G1 X103.301 Y110.716 E0.54161
G1 X117.063 Y99.936 E1.12392
G1 X117.572 Y99.588 E1.14446
G1 X117.861 Y99.43 E1.15544
G1 X118.335 Y99.192 E1.1731
G1 X118.902 Y98.952 E1.19361
G1 X119.759 Y98.74 E1.22302
G1 X121.174 Y98.527 E1.27068
G1 X121.88 Y98.474 E1.29427
G1 X127.879 Y98.472 E1.4941
G1 X128.009 Y98.112 E1.50685
G1 X128.255 Y97.548 E1.52734
G1 X128.478 Y97.16 E1.54225
G1 X128.765 Y96.712 E1.55997
G1 X129.131 Y96.216 E1.58051
G1 X129.456 Y95.866 E1.59642
G1 X130.5 Y94.852 E1.64489
G1 X130.178 Y92.69 E1.71771
G1 X130.127 Y92.076 E1.73823
G1 X130.186 Y91.239 E1.76618
G1 X130.497 Y89.293 E1.83182
G1 X130.633 Y88.693 E1.85232
G1 X130.863 Y88.078 E1.87419
G1 X131.362 Y86.98 E1.91436
G1 X131.723 Y86.326 E1.93925
G1 X132.427 Y85.261 E1.98177
G1 X132.8 Y84.77 E2.00231
G1 X133.048 Y84.505 E2.0144
G1 X135.01 Y82.562 E2.10638
G1 X135.475 Y82.158 E2.1269
G1 X136.108 Y81.75 E2.15199
G1 X136.83 Y81.363 E2.17927
G1 X137.391 Y81.108 E2.1998
G1 X138.022 Y80.918 E2.22175
G1 X138.669 Y80.771 E2.24385
G1 X139.277 Y80.674 E2.26436
G1 X140.142 Y80.672 E2.29317
G1 X141.186 Y80.765 E2.32809
G1 X141.795 Y80.859 E2.34861
G1 X142.621 Y81.124 E2.37751
G1 X143.111 Y81.332 E2.39524
G1 X143.661 Y81.609 E2.41575
G1 X144.041 Y81.857 E2.43087
G1 X144.933 Y82.503 E2.46756
G1 X145.567 Y83.054 E2.49554
G1 X146.995 Y84.536 E2.56409
G1 X147.393 Y85.007 E2.58463
G1 X147.582 Y85.282 E2.59575
G1 X148.499 Y86.723 E2.65264
G1 X148.888 Y87.474 E2.68081
G1 X149.224 Y88.295 E2.71036
G1 X149.42 Y88.879 E2.73088
G1 X149.503 Y89.251 E2.74358
G1 X149.782 Y90.799 E2.79597
G1 X149.857 Y91.615 E2.82327
G1 X149.86 Y92.147 E2.84099
G1 X149.805 Y92.897 E2.86604
G1 X149.502 Y94.863 E2.9323
G1 X150.555 Y95.876 E2.98097
G1 X150.97 Y96.331 E3.00149
G1 X151.422 Y97.006 E3.02855
G1 X151.805 Y97.701 E3.05498
G1 X152.067 Y98.259 E3.07552
G1 X152.136 Y98.477 E3.08313
G1 X159.387 Y98.502 E3.32467
G1 X160.091 Y98.557 E3.34819
G1 X160.677 Y98.647 E3.36794
G1 X161.512 Y98.854 E3.39659
G1 X162.011 Y99.027 E3.41419
G1 X162.807 Y99.388 E3.4433
G1 X163.609 Y99.845 E3.47405
G1 X164.204 Y100.247 E3.49797
G1 X177.525 Y110.787 E4.06379
G1 X178.166 Y111.4 E4.09334
G1 X178.696 Y112.011 E4.12028
G1 X179.02 Y112.437 E4.13811
G1 X179.511 Y112.66 E4.15607
G1 X180.755 Y113.359 E4.2036
G1 X181.394 Y113.79 E4.22928
G1 X190.954 Y121.433 E4.63698
G1 X191.409 Y121.848 E4.6575
G1 X191.807 Y122.319 E4.67804
G1 X191.984 Y122.575 E4.68841
G1 X192.071 Y122.711 E4.69378
G1 X192.616 Y122.929 E4.71334
G1 X193.174 Y123.244 E4.73468
G1 X194.012 Y123.794 E4.76807
G1 X194.373 Y124.055 E4.78291
G1 X200.38 Y128.859 E5.03912
G1 X200.835 Y129.275 E5.05966
G1 X201.403 Y129.992 E5.09013
G1 X202.041 Y130.98 E5.1293
G1 X202.341 Y131.518 E5.14982
G1 X202.636 Y132.315 E5.17813
G1 X202.766 Y132.795 E5.1947
G1 X202.888 Y133.399 E5.21522
G1 X202.925 Y133.795 E5.22847
G1 X202.952 Y134.324 E5.24612
G1 X202.943 Y134.94 E5.26664
G1 X202.804 Y135.768 E5.2946
G1 X202.57 Y136.663 E5.32542
G1 X202.375 Y137.247 E5.34593
G1 X202.131 Y137.759 E5.36482
G1 X201.644 Y138.64 E5.39835
G1 X201.299 Y139.175 E5.41956
G1 X200.48 Y140.277 E5.46529
G1 X200.082 Y140.747 E5.48581
G1 X199.706 Y141.095 E5.50287
G1 X199.2 Y141.516 E5.5248
G1 X198.702 Y141.879 E5.54533
G1 X198.429 Y142.039 E5.55587
G1 X197.965 Y142.291 E5.57346
G1 X197.406 Y142.549 E5.59396
G1 X196.969 Y142.694 E5.6093
G1 X196.454 Y142.837 E5.6271
G1 X195.642 Y142.988 E5.65462
G1 X194.601 Y143.089 E5.68946
G1 X194.144 Y143.111 E5.7047
G1 X188.536 Y143.114 E5.8915
G1 X188.711 Y143.552 E5.90721
G1 X188.875 Y144.034 E5.92417
G1 X189.179 Y145.119 E5.9617
G1 X189.308 Y145.736 E5.9827
G1 X189.559 Y147.511 E6.04242
G1 X189.605 Y148.1 E6.0621
G1 X189.656 Y151.279 E6.168
G1 X190.641 Y152.236 E6.21375
G1 X191.119 Y152.621 E6.23419
G1 X191.455 Y152.919 E6.24915
G1 X194.016 Y155.413 E6.36823
G1 X194.45 Y155.898 E6.38991
G1 X195.191 Y156.85 E6.43009
G1 X195.649 Y157.561 E6.45827
G1 X196.339 Y158.876 E6.50773
G1 X196.661 Y159.647 E6.53557
G1 X197.232 Y161.447 E6.59847
G1 X197.422 Y162.331 E6.62859
G1 X197.668 Y164.434 E6.69912
G1 X197.7 Y165.01 E6.71833
G1 X197.674 Y170.108 E6.88815
G1 X200.21 Y172.562 E7.0057
G1 X200.69 Y172.95 E7.02626
G1 X201.038 Y173.261 E7.04181
G1 X203.263 Y175.454 E7.14587
G1 X203.74 Y176.002 E7.17007
G1 X204.364 Y176.841 E7.2049
G1 X204.795 Y177.538 E7.2322
G1 X205.368 Y178.675 E7.27461
G1 X205.662 Y179.404 E7.3008
G1 X206.09 Y180.782 E7.34886
G1 X206.237 Y181.394 E7.36983
G1 X206.519 Y183.05 E7.42578
G1 X206.575 Y183.52 E7.44155
G1 X206.763 Y186.245 E7.53254
G1 X206.772 Y186.444 E7.53917
G1 X206.842 Y189.05 E7.62601
G1 X206.843 Y189.288 E7.63394
G1 X206.765 Y192.661 E7.74632
G1 X206.711 Y193.275 E7.76685
G1 X206.599 Y193.8 E7.78474
G1 X206.451 Y194.343 E7.80348
G1 X206.251 Y194.926 E7.82401
G1 X206.044 Y195.357 E7.83994
G1 X205.791 Y195.824 E7.85763
G1 X205.463 Y196.345 E7.87814
G1 X205.162 Y196.72 E7.89416
G1 X204.787 Y197.141 E7.91294
G1 X204.348 Y197.574 E7.93348
G1 X203.986 Y197.858 E7.9488
G1 X203.554 Y198.164 E7.96644
G1 X203.029 Y198.487 E7.98697
G1 X202.295 Y198.799 E8.01354
G1 X201.382 Y199.1 E8.04556
G1 X200.786 Y199.255 E8.06607
G1 X199.994 Y199.338 E8.0926
G1 X199.465 Y199.349 E8.11023
G1 X198.849 Y199.322 E8.13076
G1 X198.415 Y199.254 E8.1454
G1 X197.896 Y199.148 E8.16304
G1 X197.302 Y198.986 E8.18355
G1 X196.502 Y198.625 E8.21279
G1 X195.653 Y198.143 E8.24531
G1 X195.138 Y197.804 E8.26585
G1 X194.816 Y197.539 E8.27974
G1 X182.388 Y186.328 E8.83727
G1 X182.306 Y186.252 E8.84099
G1 X180.45 Y184.497 E8.92608
G1 X179.804 Y183.972 E8.95381
G1 X179.528 Y183.729 E8.96605
G1 X177.73 Y182.02 E9.04869
G1 X173.037 Y177.836 E9.25812
G1 X172.88 Y177.832 E9.26335
G1 X172.267 Y177.776 E9.28385
G1 X171.837 Y177.688 E9.29847
G1 X171.321 Y177.557 E9.31621
G1 X170.735 Y177.367 E9.33673
G1 X170.333 Y177.185 E9.35143
G1 X169.862 Y176.945 E9.36903
G1 X169.107 Y176.466 E9.39882
G1 X168.482 Y175.981 E9.42517
G1 X168.102 Y175.652 E9.44191
G1 X165.858 Y173.494 E9.54562
G1 X165.369 Y173.1 E9.56654
G1 X165.058 Y172.826 E9.58034
G1 X162.273 Y170.149 E9.70902
G1 X161.785 Y169.755 E9.72991
G1 X161.473 Y169.48 E9.74377
G1 X158.682 Y166.796 E9.87275
G1 X158.103 Y166.324 E9.89763
G1 X157.811 Y166.065 E9.91063
G1 X155.106 Y163.459 E10.03575
G1 X154.616 Y163.065 E10.05669
G1 X154.333 Y162.817 E10.06923
G1 X149.092 Y157.867 E10.30936
G1 X149.006 Y158.344 E10.32551
G1 X148.793 Y159.107 E10.3519
G1 X148.589 Y159.689 E10.37244
G1 X148.272 Y160.305 E10.39552
G1 X147.996 Y160.757 E10.41316
G1 X147.641 Y161.261 E10.43369
G1 X147.341 Y161.6 E10.44877
G1 X146.969 Y161.981 E10.46651
G1 X146.511 Y162.393 E10.48703
G1 X146.165 Y162.641 E10.50121
G1 X145.722 Y162.93 E10.51883
G1 X145.186 Y163.233 E10.53934
G1 X144.765 Y163.411 E10.55457
G1 X144.267 Y163.594 E10.57224
G1 X143.676 Y163.768 E10.59276
G1 X143.264 Y163.842 E10.6067
G1 X142.738 Y163.913 E10.62438
G1 X142.124 Y163.956 E10.64489
G1 X141.741 Y163.942 E10.65765
G1 X141.192 Y163.9 E10.67599
G1 X140.582 Y163.813 E10.69652
G1 X140.138 Y163.698 E10.7118
G1 X140.027 Y163.663 E10.71567
G1 X139.7 Y163.76 E10.72704
G1 X139.352 Y163.826 E10.73883
G1 X138.698 Y163.924 E10.76086
G1 X138.084 Y163.975 E10.78138
G1 X137.52 Y163.952 E10.80019
G1 X136.991 Y163.899 E10.8179
G1 X136.384 Y163.798 E10.83839
G1 X135.952 Y163.676 E10.85335
G1 X135.449 Y163.507 E10.87102
G1 X134.879 Y163.273 E10.89155
G1 X134.5 Y163.066 E10.90593
G1 X134.048 Y162.792 E10.92354
G1 X133.543 Y162.439 E10.94406
G1 X133.21 Y162.146 E10.95884
G1 X132.827 Y161.776 E10.97658
G1 X132.412 Y161.32 E10.99711
G1 X132.157 Y160.968 E11.01159
G1 X131.866 Y160.525 E11.02925
G1 X131.562 Y159.989 E11.04978
G1 X131.387 Y159.58 E11.06459
G1 X131.202 Y159.085 E11.0822
G1 X131.024 Y158.495 E11.10272
G1 X130.925 Y157.889 E11.12318
G1 X128.758 Y159.932 E11.22238
G1 X128.515 Y160.146 E11.23317
G1 X128.002 Y160.567 E11.25528
G1 X125.454 Y163.009 E11.37284
G1 X125.155 Y163.272 E11.3861
G1 X124.655 Y163.676 E11.40751
G1 X121.877 Y166.347 E11.53588
G1 X121.574 Y166.615 E11.54936
G1 X121.066 Y167.027 E11.57115
G1 X118.292 Y169.693 E11.6993
G1 X117.992 Y169.958 E11.71264
G1 X117.486 Y170.369 E11.73435
G1 X114.705 Y173.041 E11.86282
G1 X114.404 Y173.306 E11.87618
G1 X113.915 Y173.703 E11.89716
G1 X111.987 Y175.564 E11.98642
G1 X111.517 Y175.962 E12.00693
G1 X111.223 Y176.163 E12.0188
G1 X110.428 Y176.665 E12.05011
G1 X109.887 Y176.96 E12.07064
G1 X109.075 Y177.249 E12.09935
G1 X108.083 Y177.504 E12.13347
G1 X107.477 Y177.619 E12.15402
G1 X107.145 Y177.635 E12.16509
G1 X101.984 Y182.279 E12.39635
G1 X100.078 Y184.078 E12.48366
G1 X99.802 Y184.32 E12.49589
G1 X99.268 Y184.751 E12.51874
G1 X97.449 Y186.468 E12.60207
G1 X97.38 Y186.532 E12.6052
G1 X87.095 Y195.861 E13.06774
G1 X87.009 Y195.938 E13.07158
G1 X84.904 Y197.756 E13.16423
G1 X84.412 Y198.127 E13.18476
G1 X83.681 Y198.522 E13.21243
G1 X82.782 Y198.91 E13.24505
G1 X82.202 Y199.117 E13.26556
G1 X81.6 Y199.247 E13.28608
G1 X81.018 Y199.298 E13.30554
G1 X80.092 Y199.321 E13.3364
G1 X79.476 Y199.296 E13.35693
G1 X78.658 Y199.136 E13.3847
G1 X78.148 Y198.989 E13.40238
G1 X77.569 Y198.781 E13.42287
G1 X77.164 Y198.581 E13.43792
G1 X76.696 Y198.322 E13.45573
G1 X76.177 Y197.989 E13.47627
G1 X75.907 Y197.774 E13.48777
G1 X75.504 Y197.429 E13.50544
G1 X75.063 Y196.999 E13.52596
G1 X74.763 Y196.631 E13.54177
G1 X74.449 Y196.203 E13.55946
G1 X74.118 Y195.683 E13.57999
G1 X73.788 Y194.941 E13.60704
G1 X73.487 Y194.068 E13.6378
G1 X73.325 Y193.474 E13.65831
G1 X73.238 Y192.825 E13.68012
G1 X73.167 Y191.72 E13.717
G1 X73.158 Y191.326 E13.73013
G1 X73.253 Y186.237 E13.89968
G1 X73.262 Y186.019 E13.90695
G1 X73.422 Y183.548 E13.98943
G1 X73.486 Y183.019 E14.00718
G1 X73.836 Y181.061 E14.07343
G1 X74.048 Y180.273 E14.10061
G1 X74.603 Y178.747 E14.1547
G1 X74.99 Y177.933 E14.18473
G1 X75.686 Y176.769 E14.2299
G1 X76.036 Y176.262 E14.25042
G1 X76.254 Y176.005 E14.26165
G1 X77.109 Y175.068 E14.3039
G1 X77.323 Y174.848 E14.31413
G1 X79.212 Y173.029 E14.40148
G1 X79.511 Y172.765 E14.41477
G1 X80.041 Y172.334 E14.43752
G1 X82.311 Y170.17 E14.54199
G1 X82.299 Y169.999 E14.5477
G1 X82.317 Y164.623 E14.72678
G1 X82.357 Y164.021 E14.74687
G1 X82.6 Y162.168 E14.80913
G1 X82.779 Y161.361 E14.83666
G1 X83.263 Y159.822 E14.8904
G1 X83.571 Y159.072 E14.91741
G1 X84.318 Y157.622 E14.97174
G1 X84.635 Y157.093 E14.99229
G1 X84.822 Y156.842 E15.00271
G1 X85.738 Y155.689 E15.05176
G1 X86.154 Y155.23 E15.0724
G1 X88.636 Y152.829 E15.18743
G1 X88.931 Y152.567 E15.20057
G1 X89.604 Y152.016 E15.22954
G1 X90.317 Y151.333 E15.26243
G1 X90.335 Y149.377 E15.32759
G1 X90.345 Y149.107 E15.33659
G1 X90.474 Y147.157 E15.40169
G1 X90.561 Y146.515 E15.42327
G1 X90.917 Y144.783 E15.48217
G1 X91.1 Y144.132 E15.50469
G1 X91.468 Y143.107 E15.54097
G1 X86.267 Y143.098 E15.71422
G1 X85.522 Y143.038 E15.73911
G1 X84.619 Y142.893 E15.76958
G1 X83.776 Y142.677 E15.79857
G1 X83.277 Y142.499 E15.81621
G1 X82.711 Y142.255 E15.83674
G1 X81.994 Y141.803 E15.86498
G1 X81.258 Y141.242 E15.8958
G1 X80.793 Y140.837 E15.91635
G1 X80.264 Y140.214 E15.94357
G1 X79.011 Y138.449 E16.01567
G1 X78.687 Y137.924 E16.03622
G1 X78.543 Y137.627 E16.04722
G1 X78.328 Y137.143 E16.06486
G1 X78.115 Y136.565 E16.08538
G1 X78.011 Y136.147 E16.09972
G1 X77.907 Y135.627 E16.11739
G1 X77.826 Y135.016 E16.13792
G1 X77.818 Y134.541 E16.15374
G1 X77.839 Y133.895 E16.17527
G1 X77.898 Y133.281 E16.19582
G1 X77.97 Y132.929 E16.20779
G1 X78.095 Y132.414 E16.22544
G1 X78.279 Y131.826 E16.24597
G1 X78.455 Y131.424 E16.26058
G1 X78.69 Y130.95 E16.27821
G1 X78.999 Y130.417 E16.29873
G1 X79.27 Y130.052 E16.31387
G1 X79.608 Y129.639 E16.33165
G1 X80.028 Y129.188 E16.35218
G1 X80.33 Y128.927 E16.36547
G1 X86.782 Y123.804 E16.6399
G1 X87.506 Y123.33 E16.66873
G1 X88.279 Y122.919 E16.69789
G1 X88.84 Y122.667 E16.71838
G1 X89.026 Y122.414 E16.72883
G1 X89.97 Y121.343 E16.77639
G1 X90.599 Y120.748 E16.80523
G0 F2625 X90.908 Y121.142
G1 F900 X100.232 Y113.819 E17.20016
G1 X100.813 Y113.435 E17.22336
G1 X101.296 Y113.17 E17.24171
G1 X102.02 Y112.856 E17.26799
G1 X102.066 Y112.841 E17.26961
G1 X102.297 Y112.525 E17.28264
G1 X102.984 Y111.712 E17.3181
G1 X103.609 Y111.109 E17.34703
G1 X117.371 Y100.329 E17.92934
G1 X118.085 Y99.877 E17.95749
G1 X118.559 Y99.639 E17.97516
G1 X119.096 Y99.414 E17.99455
G1 X119.833 Y99.234 E18.01982
G1 X121.248 Y99.021 E18.06749
G1 X121.88 Y98.974 E18.0886
G1 X128.251 Y98.972 E18.30082
G1 X128.3 Y98.779 E18.30745
G1 X128.479 Y98.282 E18.32505
G1 X128.714 Y97.748 E18.34448
G1 X128.899 Y97.429 E18.35677
G1 X129.186 Y96.981 E18.37449
G1 X129.534 Y96.513 E18.39392
G1 X129.804 Y96.225 E18.40707
G1 X131.032 Y95.032 E18.4641
G1 X130.672 Y92.616 E18.54546
G1 X130.626 Y92.035 E18.56488
G1 X130.679 Y91.318 E18.58883
