;Generated by Cura LulzBot Edition GCodeWriter Version: 2.6.52
;FLAVOR:RepRap
;TIME:8294
;Filament used: 2.87868m
;Layer height: 0.18
;Generated with Cura_SteamEngine 2.6.52
;This G-Code has been generated specifically for the LulzBot TAZ 6 with standard extruder
G26                                 ; clear potential 'probe fail' condition
G21                                 ; set units to Millimetres
M107                                ; disable fans
G90                                 ; absolute positioning
M82                                 ; set extruder to absolute mode
G92 E0                              ; set extruder position to 0
M140 S110    ; start bed heating up
G28 XY                              ; home X and Y
G1 X-19 Y258 F1000                  ; move to safe homing position
M109 R175 ; soften filament before homing Z
G28 Z                               ; home Z
M109 R170   ; wait for extruder to reach wiping temp
G1 E-30 F100                        ; retract filament
G1 X-15 Y100 F3000                  ; move above wiper pad
G1 Z1                               ; push nozzle into wiper
G1 X-17 Y95 F1000                   ; slow wipe
G1 X-17 Y90 F1000                   ; slow wipe
G1 X-17 Y85 F1000                   ; slow wipe
G1 X-15 Y90 F1000                   ; slow wipe
G1 X-17 Y80 F1000                   ; slow wipe
G1 X-15 Y95 F1000                   ; slow wipe
G1 X-17 Y75 F2000                   ; fast wipe
G1 X-15 Y65 F2000                   ; fast wipe
G1 X-17 Y70 F2000                   ; fast wipe
G1 X-15 Y60 F2000                   ; fast wipe
G1 X-17 Y55 F2000                   ; fast wipe
G1 X-15 Y50 F2000                   ; fast wipe
G1 X-17 Y40 F2000                   ; fast wipe
G1 X-15 Y45 F2000                   ; fast wipe
G1 X-17 Y35 F2000                   ; fast wipe
G1 X-15 Y40 F2000                   ; fast wipe
G1 X-17 Y70 F2000                   ; fast wipe
G1 X-15 Y30 Z2 F2000                ; fast wipe
G1 X-17 Y35 F2000                   ; fast wipe
G1 X-15 Y25 F2000                   ; fast wipe
G1 X-17 Y30 F2000                   ; fast wipe
G1 X-15 Y25 Z1.5 F1000              ; slow wipe
G1 X-17 Y23 F1000                   ; slow wipe
G1 Z10                              ; raise extruder
M109 R170  ; wait for extruder to reach probe temp
G1 X-9 Y-9                          ; move above first probe point
M204 S100                           ; set probing acceleration
G29                                 ; start auto-leveling sequence
M204 S500                           ; restore standard acceleration
G1 X0 Y0 Z15 F5000                  ; move up off last probe point
G4 S1                               ; pause
M400                                ; wait for moves to finish
M117 Heating...                     ; progress indicator message on LCD
M109 R240  ; wait for extruder to reach printing temp
M190 S110    ; wait for bed to reach printing temp
G1 Z2 E0 F75                        ; prime tiny bit of filment into the nozzle
M117 TAZ 6 Printing...              ; progress indicator message on LCD

;LAYER_COUNT:21
;LAYER:0
M107
G0 F2625 X104.431 Y100.358 Z0.425
G0 X105.47 Y99.534
;TYPE:SKIRT
G1 F900 X106.765 Y98.317 E0.0592
G1 X107.258 Y97.913 E0.08043
G1 X111.92 Y94.585 E0.27123
G1 X112.61 Y94.176 E0.29795
G1 X112.817 Y94.076 E0.30561
G1 X113.195 Y93.815 E0.32091
G1 X113.804 Y93.459 E0.3444
G1 X114.472 Y93.132 E0.36918
G1 X114.866 Y92.86 E0.38513
G1 X115.489 Y92.497 E0.40914
G1 X118.214 Y91.173 E0.51006
G1 X118.785 Y90.94 E0.53061
G1 X119.084 Y90.851 E0.541
G1 X119.089 Y90.85 E0.54117
G1 X121.049 Y89.98 E0.6126
G1 X121.545 Y89.792 E0.63027
G1 X126.527 Y88.219 E0.80429
G1 X126.985 Y88.099 E0.82007
G1 X130.646 Y87.334 E0.94465
G1 X131.189 Y87.261 E0.9629
G1 X131.482 Y86.656 E0.98529
G1 X131.903 Y85.95 E1.01267
G1 X132.808 Y84.694 E1.06424
G1 X133.36 Y84.056 E1.09234
G1 X135.056 Y82.416 E1.17093
G1 X135.526 Y82.018 E1.19144
G1 X135.891 Y81.772 E1.20611
G1 X136.35 Y81.493 E1.224
G1 X136.896 Y81.208 E1.24451
G1 X137.312 Y81.047 E1.25937
G1 X137.824 Y80.876 E1.27735
G1 X138.42 Y80.719 E1.29788
G1 X138.726 Y80.669 E1.30821
G1 X139.461 Y80.575 E1.33289
G1 X140.076 Y80.537 E1.35342
G1 X140.6 Y80.567 E1.3709
G1 X141.137 Y80.628 E1.38891
G1 X141.744 Y80.737 E1.40945
G1 X142.553 Y81.017 E1.43796
G1 X143.516 Y81.451 E1.47315
G1 X144.06 Y81.741 E1.49368
G1 X144.483 Y82.034 E1.51082
G1 X144.908 Y82.365 E1.52877
G1 X145.393 Y82.8 E1.55047
G1 X147.187 Y84.643 E1.63614
G1 X147.587 Y85.111 E1.65665
G1 X147.778 Y85.386 E1.6678
G1 X148.254 Y86.126 E1.69711
G1 X148.567 Y86.696 E1.71877
G1 X148.915 Y87.445 E1.74629
G1 X149.084 Y87.475 E1.752
G1 X153.956 Y88.696 E1.91931
G1 X154.171 Y88.756 E1.92675
G1 X156.564 Y89.477 E2.01
G1 X157.17 Y89.706 E2.03158
G1 X157.72 Y89.958 E2.05173
G1 X158.014 Y90.046 E2.06195
G1 X158.787 Y90.354 E2.08967
G1 X159.001 Y90.462 E2.09765
G1 X159.202 Y90.522 E2.10464
G1 X159.976 Y90.829 E2.13238
G1 X161.143 Y91.415 E2.17588
G1 X161.355 Y91.479 E2.18325
G1 X162.171 Y91.808 E2.21256
G1 X162.876 Y92.172 E2.23899
G1 X163.469 Y92.536 E2.26217
G1 X163.766 Y92.749 E2.27434
G1 X166.291 Y94.121 E2.37006
G1 X166.657 Y94.342 E2.38431
G1 X169.856 Y96.473 E2.51234
G1 X170.106 Y96.651 E2.52257
G1 X171.194 Y97.482 E2.56817
G1 X171.577 Y97.808 E2.58492
G1 X172.068 Y98.273 E2.60745
G1 X172.209 Y98.364 E2.61304
G1 X172.929 Y98.934 E2.64363
G1 X174.218 Y100.176 E2.70325
G1 X174.71 Y100.527 E2.72339
G1 X175.009 Y100.792 E2.73669
G1 X176.152 Y101.898 E2.78967
G1 X176.733 Y102.578 E2.81947
G1 X176.996 Y102.952 E2.8347
G1 X178.671 Y104.707 E2.91551
G1 X179.067 Y105.179 E2.93603
G1 X179.29 Y105.512 E2.94938
G1 X179.313 Y105.55 E2.95086
G1 X179.777 Y106.073 E2.97415
G1 X180.074 Y106.445 E2.99001
G1 X182.044 Y109.174 E3.10212
G1 X182.236 Y109.461 E3.11362
G1 X183.524 Y111.549 E3.19535
G1 X183.922 Y112.126 E3.21869
G1 X184.311 Y112.802 E3.24467
G1 X187.092 Y118.705 E3.46203
G1 X187.269 Y119.133 E3.47746
G1 X188.472 Y122.505 E3.59672
G1 X188.551 Y122.749 E3.60526
G1 X189.27 Y125.17 E3.68939
G1 X189.419 Y125.846 E3.71245
G1 X189.506 Y126.449 E3.73274
G1 X189.854 Y127.768 E3.77818
G1 X189.997 Y128.621 E3.80699
G1 X190.028 Y129.034 E3.82079
G1 X190.127 Y129.428 E3.83432
G1 X190.261 Y130.306 E3.8639
G1 X190.275 Y130.547 E3.87194
G1 X190.39 Y131.048 E3.88907
G1 X190.508 Y131.952 E3.91943
G1 X190.537 Y132.806 E3.9479
G1 X190.646 Y133.316 E3.96527
G1 X190.735 Y133.926 E3.9858
G1 X190.751 Y134.326 E3.99914
G1 X190.727 Y141.725 E4.2456
G1 X190.685 Y142.34 E4.26614
G1 X190.602 Y142.793 E4.28148
G1 X190.51 Y143.186 E4.29492
G1 X190.473 Y144.129 E4.32636
G1 X190.409 Y144.741 E4.34686
G1 X190.27 Y145.329 E4.36698
G1 X190.21 Y145.524 E4.37378
G1 X190.118 Y146.167 E4.39542
G1 X189.991 Y146.77 E4.41594
G1 X189.704 Y147.535 E4.44316
G1 X189.663 Y147.621 E4.44633
G1 X189.696 Y147.783 E4.45184
G1 X189.778 Y148.394 E4.47237
G1 X189.79 Y148.721 E4.48327
G1 X189.793 Y151.332 E4.57025
G1 X190.775 Y152.281 E4.61574
G1 X191.257 Y152.652 E4.636
G1 X191.714 Y153.053 E4.65625
G1 X194.394 Y155.724 E4.78229
G1 X194.801 Y156.186 E4.8028
G1 X195.065 Y156.564 E4.81816
G1 X196.205 Y158.381 E4.88961
G1 X196.498 Y158.923 E4.91013
G1 X196.643 Y159.276 E4.92284
G1 X197.042 Y160.369 E4.9616
G1 X197.201 Y160.9 E4.98006
G1 X197.549 Y162.364 E5.03019
G1 X197.653 Y162.971 E5.0507
G1 X197.675 Y163.282 E5.06109
G1 X197.763 Y165.598 E5.13829
G1 X197.766 Y165.837 E5.14625
G1 X197.714 Y170.04 E5.28627
G1 X200.834 Y173.092 E5.43165
G1 X201.306 Y173.456 E5.45151
G1 X201.798 Y173.893 E5.47343
G1 X203.594 Y175.725 E5.55888
G1 X203.996 Y176.192 E5.57941
G1 X204.198 Y176.482 E5.59118
G1 X205.104 Y177.892 E5.64701
G1 X205.403 Y178.431 E5.66754
G1 X205.611 Y178.949 E5.68614
G1 X206.211 Y180.737 E5.74896
G1 X206.393 Y181.465 E5.77395
G1 X206.643 Y182.96 E5.82444
G1 X206.704 Y183.554 E5.84434
G1 X206.845 Y187.091 E5.96225
G1 X206.849 Y187.322 E5.96994
G1 X206.804 Y192.454 E6.1409
G1 X206.722 Y193.291 E6.16891
G1 X206.616 Y193.854 E6.188
G1 X206.463 Y194.451 E6.20853
G1 X206.313 Y194.849 E6.22269
G1 X206.1 Y195.345 E6.24067
G1 X205.82 Y195.894 E6.2612
G1 X205.577 Y196.264 E6.27595
G1 X205.26 Y196.7 E6.2939
G1 X204.866 Y197.174 E6.31444
G1 X204.527 Y197.498 E6.33006
G1 X204.117 Y197.853 E6.34812
G1 X203.626 Y198.225 E6.36864
G1 X203.227 Y198.462 E6.3841
G1 X202.752 Y198.713 E6.40199
G1 X202.19 Y198.965 E6.42251
G1 X201.765 Y199.1 E6.43737
G1 X201.199 Y199.252 E6.45689
G1 X200.595 Y199.373 E6.47741
G1 X199.932 Y199.415 E6.49953
G1 X199.124 Y199.409 E6.52645
G1 X198.509 Y199.364 E6.54699
G1 X197.795 Y199.209 E6.57133
G1 X197.278 Y199.054 E6.58931
G1 X196.7 Y198.839 E6.60985
G1 X196.299 Y198.636 E6.62482
G1 X195.83 Y198.37 E6.64278
G1 X195.315 Y198.032 E6.6633
G1 X194.914 Y197.694 E6.68077
G1 X193.034 Y195.921 E6.76685
G1 X192.667 Y195.65 E6.78205
G1 X192.204 Y195.26 E6.80221
G1 X190.388 Y193.52 E6.88599
G1 X190.033 Y193.257 E6.90071
G1 X189.572 Y192.868 E6.9208
G1 X187.758 Y191.129 E7.0045
G1 X187.404 Y190.867 E7.01917
G1 X186.95 Y190.485 E7.03894
G1 X185.37 Y188.977 E7.11169
G1 X185.013 Y188.712 E7.1265
G1 X184.552 Y188.323 E7.1466
G1 X182.739 Y186.584 E7.23028
G1 X182.385 Y186.322 E7.24495
G1 X181.926 Y185.934 E7.26497
G1 X180.114 Y184.198 E7.34856
G1 X179.754 Y183.932 E7.36347
G1 X179.294 Y183.544 E7.38351
G1 X177.481 Y181.807 E7.46715
G1 X177.126 Y181.544 E7.48186
G1 X176.665 Y181.155 E7.50196
G1 X174.853 Y179.417 E7.58559
G1 X174.5 Y179.157 E7.6002
G1 X174.036 Y178.766 E7.62041
G1 X173.156 Y177.922 E7.66102
G1 X173.018 Y177.918 E7.66562
G1 X172.404 Y177.858 E7.68617
G1 X171.958 Y177.763 E7.70136
G1 X171.931 Y177.756 E7.70229
G1 X171.732 Y177.937 E7.71125
G1 X171.31 Y178.28 E7.72937
G1 X168.566 Y180.26 E7.84208
G1 X168.423 Y180.359 E7.84787
G1 X166.269 Y181.796 E7.93413
G1 X165.797 Y182.073 E7.95236
G1 X164.843 Y182.561 E7.98805
G1 X164.414 Y182.857 E8.00541
G1 X163.801 Y183.216 E8.02908
G1 X160.601 Y184.778 E8.14769
G1 X160.031 Y185.011 E8.1682
G1 X159.732 Y185.101 E8.1786
G1 X159.651 Y185.122 E8.18139
G1 X156.529 Y186.4 E8.29376
G1 X156.108 Y186.55 E8.30865
G1 X153.331 Y187.392 E8.40531
G1 X153.059 Y187.466 E8.4147
G1 X149.491 Y188.32 E8.53691
G1 X148.943 Y188.417 E8.55545
G1 X148.683 Y188.448 E8.56417
G1 X148.578 Y188.48 E8.56782
G1 X147.979 Y188.622 E8.58833
G1 X147.512 Y188.678 E8.604
G1 X146.895 Y188.721 E8.6246
G1 X146.31 Y188.86 E8.64463
G1 X145.748 Y188.922 E8.66346
G1 X144.489 Y188.985 E8.70545
G1 X143.948 Y189.101 E8.72388
G1 X143.338 Y189.191 E8.74442
G1 X142.888 Y189.207 E8.75942
G1 X140.913 Y189.181 E8.82522
G1 X140.299 Y189.133 E8.84573
G1 X139.783 Y189.029 E8.86326
G1 X139.259 Y188.893 E8.8813
G1 X138.674 Y188.7 E8.90182
G1 X138.25 Y188.504 E8.91738
G1 X137.774 Y188.255 E8.93527
G1 X137.248 Y187.935 E8.95578
G1 X136.891 Y187.657 E8.97085
G1 X136.479 Y187.305 E8.9889
G1 X136.037 Y186.876 E9.00942
G1 X135.735 Y186.505 E9.02536
G1 X135.415 Y186.069 E9.04337
G1 X135.083 Y185.549 E9.06392
G1 X134.887 Y185.15 E9.07873
G1 X134.672 Y184.655 E9.09671
G1 X134.464 Y184.075 E9.11723
G1 X134.36 Y183.638 E9.13219
G1 X134.261 Y183.11 E9.15009
G1 X134.187 Y182.499 E9.17059
G1 X134.184 Y182.033 E9.18611
G1 X134.207 Y181.493 E9.20412
G1 X134.273 Y180.88 E9.22465
G1 X134.371 Y180.441 E9.23964
G1 X134.513 Y179.922 E9.25756
G1 X134.714 Y179.34 E9.27807
G1 X134.919 Y178.913 E9.29385
G1 X135.177 Y178.437 E9.31188
G1 X135.505 Y177.915 E9.33242
G1 X135.968 Y177.368 E9.35629
G1 X136.535 Y176.792 E9.38321
G1 X136.995 Y176.382 E9.40374
G1 X137.603 Y175.977 E9.42807
G1 X138.072 Y175.715 E9.44597
G1 X138.629 Y175.45 E9.46652
G1 X139.1 Y175.29 E9.48309
G1 X140.341 Y174.94 E9.52604
G1 X140.943 Y174.812 E9.54654
G1 X141.344 Y174.771 E9.55996
G1 X142.207 Y174.719 E9.58876
G1 X142.768 Y174.585 E9.60798
G1 X143.118 Y174.539 E9.61974
G1 X143.661 Y174.487 E9.63791
G1 X144.405 Y174.287 E9.66357
G1 X144.87 Y174.186 E9.67942
G1 X145.622 Y174.063 E9.7048
G1 X146.804 Y173.74 E9.74562
G1 X149.971 Y172.683 E9.85683
G1 X151.085 Y172.16 E9.89783
G1 X151.659 Y171.935 E9.91836
G1 X151.729 Y171.915 E9.92079
G1 X153.896 Y170.835 E10.00144
G1 X154.307 Y170.551 E10.01808
G1 X154.943 Y170.18 E10.04261
G1 X155.132 Y170.089 E10.04959
G1 X155.504 Y169.832 E10.06465
G1 X156.135 Y169.465 E10.08897
G1 X156.237 Y169.416 E10.09274
G1 X158.768 Y167.512 E10.19824
G1 X159.104 Y167.232 E10.21281
G1 X158.069 Y166.226 E10.26089
G1 X157.617 Y165.881 E10.27983
G1 X157.184 Y165.508 E10.29887
G1 X154.483 Y162.88 E10.4244
G1 X154.026 Y162.53 E10.44357
G1 X153.6 Y162.162 E10.46232
G1 X150.917 Y159.553 E10.58698
G1 X150.582 Y159.304 E10.60089
G1 X150.109 Y158.902 E10.62156
G1 X149.074 Y157.898 E10.6696
G1 X148.931 Y158.666 E10.69562
G1 X148.78 Y159.264 E10.71616
G1 X148.466 Y160.007 E10.74303
G1 X148.215 Y160.485 E10.76102
G1 X147.894 Y161.011 E10.78154
G1 X147.618 Y161.366 E10.79652
G1 X147.267 Y161.776 E10.8145
G1 X146.837 Y162.217 E10.83502
G1 X146.474 Y162.513 E10.85062
G1 X146.039 Y162.833 E10.86861
G1 X145.52 Y163.165 E10.88913
G1 X144.737 Y163.51 E10.91763
G1 X143.844 Y163.81 E10.94901
G1 X143.248 Y163.968 E10.96955
G1 X142.384 Y164.057 E10.99848
G1 X141.846 Y164.063 E11.0164
G1 X141.231 Y164.03 E11.03692
G1 X140.528 Y163.891 E11.06079
G1 X140.041 Y163.757 E11.07762
G1 X139.835 Y163.82 E11.08479
G1 X139.479 Y163.891 E11.09688
G1 X138.683 Y164.017 E11.12373
G1 X138.069 Y164.073 E11.14427
G1 X137.335 Y164.036 E11.16875
G1 X136.798 Y163.967 E11.18678
G1 X136.193 Y163.849 E11.20731
G1 X135.772 Y163.717 E11.22201
G1 X135.266 Y163.532 E11.23996
G1 X134.702 Y163.284 E11.26048
G1 X134.287 Y163.039 E11.27653
G1 X133.837 Y162.743 E11.29447
G1 X133.345 Y162.372 E11.315
G1 X133.027 Y162.071 E11.32959
G1 X132.653 Y161.683 E11.34754
G1 X132.255 Y161.213 E11.36805
G1 X131.996 Y160.824 E11.38362
G1 X131.718 Y160.359 E11.40167
G1 X131.437 Y159.811 E11.42218
G1 X131.265 Y159.352 E11.43851
G1 X131.093 Y158.807 E11.45754
G1 X130.946 Y158.208 E11.47809
G1 X130.907 Y157.908 E11.48817
G1 X128.832 Y159.904 E11.58407
G1 X128.288 Y160.354 E11.60759
G1 X128.171 Y160.437 E11.61237
G1 X125.244 Y163.251 E11.74762
G1 X124.699 Y163.702 E11.77118
G1 X124.586 Y163.782 E11.77579
G1 X121.656 Y166.599 E11.91118
G1 X121.112 Y167.049 E11.9347
G1 X121.015 Y167.118 E11.93867
G1 X118.301 Y169.757 E12.06476
G1 X117.822 Y170.165 E12.08572
G1 X117.45 Y170.441 E12.10115
G1 X114.481 Y173.294 E12.23831
G1 X113.942 Y173.741 E12.26164
G1 X113.813 Y173.832 E12.26689
G1 X111.594 Y175.943 E12.36891
G1 X111.121 Y176.338 E12.38944
G1 X110.602 Y176.668 E12.40993
G1 X110.127 Y176.928 E12.42797
G1 X109.568 Y177.188 E12.4485
G1 X109.097 Y177.343 E12.46502
G1 X108.379 Y177.539 E12.48981
G1 X107.775 Y177.663 E12.51035
G1 X107.427 Y177.698 E12.522
G1 X107.052 Y177.722 E12.53452
G1 X105.136 Y179.534 E12.62236
G1 X104.618 Y179.959 E12.64468
G1 X104.479 Y180.057 E12.65035
G1 X102.505 Y181.924 E12.74085
G1 X101.989 Y182.348 E12.7631
G1 X101.86 Y182.439 E12.76836
G1 X99.986 Y184.228 E12.85466
G1 X99.482 Y184.647 E12.87649
G1 X99.247 Y184.816 E12.88613
G1 X97.352 Y186.623 E12.97335
G1 X96.836 Y187.05 E12.99566
G1 X96.598 Y187.22 E13.00541
G1 X94.609 Y189.1 E13.09657
G1 X94.091 Y189.525 E13.11889
G1 X93.967 Y189.613 E13.12396
G1 X92.333 Y191.167 E13.19907
G1 X91.825 Y191.587 E13.22103
G1 X91.583 Y191.761 E13.23096
G1 X89.598 Y193.638 E13.32196
G1 X89.08 Y194.063 E13.34428
G1 X88.941 Y194.161 E13.34994
G1 X86.967 Y196.028 E13.44045
G1 X86.45 Y196.453 E13.46274
G1 X86.305 Y196.556 E13.46867
G1 X85.048 Y197.731 E13.52598
G1 X84.572 Y198.121 E13.54648
G1 X84.049 Y198.447 E13.56701
G1 X83.702 Y198.616 E13.57986
G1 X82.807 Y199.006 E13.61238
G1 X82.227 Y199.215 E13.63292
G1 X81.625 Y199.347 E13.65345
G1 X81.035 Y199.399 E13.67318
G1 X80.093 Y199.424 E13.70457
G1 X79.477 Y199.401 E13.7251
G1 X78.621 Y199.231 E13.75417
G1 X78.103 Y199.078 E13.77216
G1 X77.525 Y198.866 E13.79267
G1 X77.133 Y198.67 E13.80727
G1 X76.662 Y198.407 E13.82524
G1 X76.145 Y198.073 E13.84574
G1 X75.639 Y197.639 E13.86795
G1 X75.048 Y197.055 E13.89562
G1 X74.639 Y196.594 E13.91615
G1 X74.293 Y196.084 E13.93668
G1 X74.002 Y195.503 E13.95833
G1 X73.59 Y194.514 E13.99402
