;Generated by Cura LulzBot Edition GCodeWriter Version: 2.6.52
;FLAVOR:RepRap
;TIME:8515
;Filament used: 2.8622m
;Layer height: 0.18
;Generated with Cura_SteamEngine 2.6.52
;This G-Code has been generated specifically for the LulzBot TAZ 6 with standard extruder
G26                                 ; clear potential 'probe fail' condition
G21                                 ; set units to Millimetres
M107                                ; disable fans
G90                                 ; absolute positioning
M82                                 ; set extruder to absolute mode
G92 E0                              ; set extruder position to 0
M140 S110    ; start bed heating up
G28 XY                              ; home X and Y
G1 X-19 Y258 F1000                  ; move to safe homing position
M109 R175 ; soften filament before homing Z
G28 Z                               ; home Z
M109 R170   ; wait for extruder to reach wiping temp
G1 E-30 F100                        ; retract filament
G1 X-15 Y100 F3000                  ; move above wiper pad
G1 Z1                               ; push nozzle into wiper
G1 X-17 Y95 F1000                   ; slow wipe
G1 X-17 Y90 F1000                   ; slow wipe
G1 X-17 Y85 F1000                   ; slow wipe
G1 X-15 Y90 F1000                   ; slow wipe
G1 X-17 Y80 F1000                   ; slow wipe
G1 X-15 Y95 F1000                   ; slow wipe
G1 X-17 Y75 F2000                   ; fast wipe
G1 X-15 Y65 F2000                   ; fast wipe
G1 X-17 Y70 F2000                   ; fast wipe
G1 X-15 Y60 F2000                   ; fast wipe
G1 X-17 Y55 F2000                   ; fast wipe
G1 X-15 Y50 F2000                   ; fast wipe
G1 X-17 Y40 F2000                   ; fast wipe
G1 X-15 Y45 F2000                   ; fast wipe
G1 X-17 Y35 F2000                   ; fast wipe
G1 X-15 Y40 F2000                   ; fast wipe
G1 X-17 Y70 F2000                   ; fast wipe
G1 X-15 Y30 Z2 F2000                ; fast wipe
G1 X-17 Y35 F2000                   ; fast wipe
G1 X-15 Y25 F2000                   ; fast wipe
G1 X-17 Y30 F2000                   ; fast wipe
G1 X-15 Y25 Z1.5 F1000              ; slow wipe
G1 X-17 Y23 F1000                   ; slow wipe
G1 Z10                              ; raise extruder
M109 R170  ; wait for extruder to reach probe temp
G1 X-9 Y-9                          ; move above first probe point
M204 S100                           ; set probing acceleration
G29                                 ; start auto-leveling sequence
M204 S500                           ; restore standard acceleration
G1 X0 Y0 Z15 F5000                  ; move up off last probe point
G4 S1                               ; pause
M400                                ; wait for moves to finish
M117 Heating...                     ; progress indicator message on LCD
M109 R240  ; wait for extruder to reach printing temp
M190 S110    ; wait for bed to reach printing temp
G1 Z2 E0 F75                        ; prime tiny bit of filment into the nozzle
M117 TAZ 6 Printing...              ; progress indicator message on LCD

;LAYER_COUNT:21
;LAYER:0
M107
G0 F2625 X105.12 Y96.624 Z0.425
G0 X105.455 Y96.324
;TYPE:SKIRT
G1 F900 X105.876 Y95.982 E0.01807
G1 X106.378 Y95.626 E0.03857
G1 X107.044 Y95.284 E0.06351
G1 X109.48 Y94.269 E0.15141
G1 X111.691 Y93.208 E0.2331
G1 X111.825 Y93.156 E0.23789
G1 X111.992 Y92.795 E0.25114
G1 X112.238 Y92.391 E0.2669
G1 X112.542 Y91.944 E0.2849
G1 X112.921 Y91.458 E0.30543
G1 X113.242 Y91.131 E0.3207
G1 X113.637 Y90.765 E0.33863
G1 X114.115 Y90.376 E0.35916
G1 X114.502 Y90.129 E0.37445
G1 X114.971 Y89.86 E0.39246
G1 X115.524 Y89.588 E0.41299
G1 X116.157 Y89.378 E0.43521
G1 X118.534 Y88.77 E0.51694
G1 X118.828 Y88.705 E0.52697
G1 X120.163 Y88.452 E0.57223
G1 X120.391 Y88.378 E0.58021
G1 X121.279 Y88.18 E0.61052
G1 X121.712 Y88.126 E0.62505
G1 X122.196 Y88.005 E0.64167
G1 X122.802 Y87.894 E0.66219
G1 X123.382 Y87.862 E0.68154
G1 X124.917 Y87.872 E0.73268
G1 X125.531 Y87.916 E0.75318
G1 X125.98 Y88 E0.7684
G1 X126.508 Y88.125 E0.78647
G1 X127.097 Y88.305 E0.80699
G1 X127.514 Y88.487 E0.82214
G1 X130.034 Y89.729 E0.91572
G1 X130.317 Y89.666 E0.92538
G1 X130.501 Y89.643 E0.93156
G1 X130.661 Y88.91 E0.95655
G1 X130.867 Y88.222 E0.98047
G1 X131.261 Y87.197 E1.01705
G1 X131.519 Y86.637 E1.03759
G1 X131.708 Y86.319 E1.04991
G1 X132.535 Y85.042 E1.10059
G1 X132.903 Y84.548 E1.12111
G1 X133.157 Y84.271 E1.13363
G1 X134.794 Y82.628 E1.21089
G1 X135.256 Y82.221 E1.2314
G1 X135.765 Y81.879 E1.25182
G1 X136.488 Y81.457 E1.27971
G1 X137.039 Y81.181 E1.30024
G1 X137.621 Y80.979 E1.32076
G1 X137.987 Y80.894 E1.33327
G1 X139.154 Y80.67 E1.37286
G1 X139.765 Y80.594 E1.39337
G1 X140.583 Y80.615 E1.42062
G1 X141.635 Y80.734 E1.45589
G1 X142.241 Y80.843 E1.4764
G1 X142.611 Y80.95 E1.48923
G1 X143.124 Y81.122 E1.50725
G1 X143.694 Y81.356 E1.52778
G1 X144.077 Y81.565 E1.54231
G1 X144.537 Y81.844 E1.56023
G1 X145.136 Y82.274 E1.58479
G1 X145.793 Y82.828 E1.61342
G1 X146.236 Y83.254 E1.63389
G1 X147.069 Y84.165 E1.67501
G1 X147.42 Y84.597 E1.69355
G1 X148.344 Y85.882 E1.74627
G1 X148.671 Y86.404 E1.76679
G1 X148.828 Y86.724 E1.77866
G1 X149.223 Y87.612 E1.81104
G1 X149.47 Y88.308 E1.83564
G1 X149.834 Y89.66 E1.88228
G1 X149.845 Y89.714 E1.88411
G1 X150.071 Y89.766 E1.89184
G1 X152.764 Y88.448 E1.99171
G1 X153.334 Y88.213 E2.01225
G1 X153.929 Y88.055 E2.03275
G1 X154.326 Y87.993 E2.04614
G1 X155.511 Y87.861 E2.08586
G1 X156.326 Y87.841 E2.11301
G1 X157.343 Y87.903 E2.14695
G1 X158.094 Y88.009 E2.17222
G1 X162.51 Y89 E2.32297
G1 X162.832 Y89.084 E2.33406
G1 X163.928 Y89.412 E2.37217
G1 X164.505 Y89.627 E2.39268
G1 X165.11 Y89.952 E2.41555
G1 X165.791 Y90.384 E2.44242
G1 X166.289 Y90.747 E2.46294
G1 X166.91 Y91.371 E2.49227
G1 X167.359 Y91.915 E2.51576
G1 X167.72 Y92.415 E2.53631
G1 X168.013 Y92.957 E2.55683
G1 X168.072 Y93.101 E2.56201
G1 X168.849 Y93.474 E2.59072
G1 X169.155 Y93.569 E2.6014
G1 X169.869 Y93.856 E2.62703
G1 X171.527 Y94.683 E2.68875
G1 X171.784 Y94.763 E2.69771
G1 X172.567 Y95.085 E2.72592
G1 X173.248 Y95.439 E2.75148
G1 X173.775 Y95.758 E2.772
G1 X174.031 Y95.95 E2.78266
G1 X174.452 Y96.288 E2.80065
G1 X174.906 Y96.704 E2.82116
G1 X175.361 Y97.256 E2.84499
G1 X175.826 Y97.916 E2.87188
G1 X176.147 Y98.442 E2.8924
G1 X176.398 Y99.005 E2.91294
G1 X176.515 Y99.363 E2.92548
G1 X176.696 Y100.006 E2.94773
G1 X177.363 Y100.561 E2.97664
G1 X178.487 Y101.363 E3.02263
G1 X178.847 Y101.646 E3.03789
G1 X179.572 Y102.277 E3.0699
G1 X180.63 Y103.041 E3.11337
G1 X181.211 Y103.536 E3.1388
G1 X181.781 Y104.107 E3.16567
G1 X182.187 Y104.571 E3.18621
G1 X182.56 Y105.137 E3.20879
G1 X182.851 Y105.655 E3.22858
G1 X183.118 Y106.21 E3.2491
G1 X183.301 Y106.763 E3.2685
G1 X183.474 Y107.415 E3.29097
G1 X183.589 Y107.997 E3.31073
G1 X183.997 Y108.36 E3.32892
G1 X185.038 Y109.48 E3.37986
G1 X185.428 Y109.958 E3.40041
G1 X185.549 Y110.142 E3.40774
G1 X186.582 Y111.229 E3.45769
G1 X187.134 Y111.932 E3.48746
G1 X187.208 Y112.047 E3.49202
G1 X187.905 Y112.801 E3.52622
G1 X188.293 Y113.279 E3.54673
G1 X188.583 Y113.744 E3.56499
G1 X188.842 Y114.217 E3.58295
G1 X189.103 Y114.775 E3.60347
G1 X189.252 Y115.224 E3.61923
G1 X189.397 Y115.745 E3.63724
G1 X189.523 Y116.348 E3.65776
G1 X189.566 Y116.808 E3.67315
G1 X189.59 Y117.347 E3.69112
G1 X189.578 Y117.963 E3.71165
G1 X189.564 Y118.063 E3.71501
G1 X189.662 Y118.192 E3.72041
G1 X190.001 Y118.706 E3.74092
G1 X190.243 Y119.193 E3.75903
G1 X191.752 Y122.724 E3.88694
G1 X191.863 Y123.009 E3.89713
G1 X192.671 Y125.296 E3.97792
G1 X192.838 Y125.889 E3.99845
G1 X192.941 Y126.79 E4.02865
G1 X192.951 Y127.328 E4.04658
G1 X192.923 Y127.943 E4.06708
G1 X192.85 Y128.393 E4.08227
G1 X192.739 Y128.921 E4.10024
G1 X192.577 Y129.504 E4.1204
G1 X192.731 Y129.993 E4.13748
G1 X192.877 Y130.591 E4.15798
G1 X192.928 Y130.958 E4.17032
G1 X192.977 Y131.461 E4.18716
G1 X192.998 Y131.532 E4.18962
G1 X193.129 Y132.099 E4.20901
G1 X193.595 Y134.884 E4.30307
G1 X193.66 Y135.686 E4.32987
G1 X193.657 Y136.496 E4.35685
G1 X193.615 Y137.11 E4.37735
G1 X193.463 Y137.823 E4.40164
G1 X193.311 Y138.338 E4.41952
G1 X193.098 Y138.916 E4.44004
G1 X192.982 Y139.133 E4.44824
G1 X193.173 Y139.648 E4.46653
G1 X193.306 Y140.218 E4.48603
G1 X193.396 Y140.751 E4.50404
G1 X193.462 Y141.555 E4.53091
G1 X193.449 Y146.236 E4.68683
G1 X193.407 Y146.851 E4.70737
G1 X193.269 Y147.517 E4.73002
G1 X193.122 Y148.036 E4.74799
G1 X192.916 Y148.617 E4.76853
G1 X192.571 Y149.274 E4.79324
G1 X192.14 Y149.958 E4.82018
G1 X191.778 Y150.457 E4.84071
G1 X191.276 Y150.977 E4.86479
G1 X190.873 Y151.335 E4.88274
G1 X190.386 Y151.714 E4.9033
G1 X190.374 Y151.722 E4.90378
G1 X190.867 Y152.187 E4.92635
G1 X191.298 Y152.521 E4.94452
G1 X191.743 Y152.913 E4.96427
G1 X194.527 Y155.694 E5.09535
G1 X194.934 Y156.157 E5.11588
G1 X195.129 Y156.431 E5.12708
G1 X196.059 Y157.834 E5.18315
G1 X196.456 Y158.563 E5.2108
G1 X196.841 Y159.448 E5.24295
G1 X197.088 Y160.17 E5.26837
G1 X197.636 Y162.32 E5.34228
G1 X197.749 Y162.925 E5.36278
G1 X197.779 Y163.287 E5.37488
G1 X197.898 Y166.025 E5.46617
G1 X197.901 Y166.348 E5.47693
G1 X197.809 Y170.074 E5.60108
G1 X198.161 Y170.361 E5.61621
G1 X198.461 Y170.628 E5.62959
G1 X202.006 Y174.058 E5.7939
G1 X202.743 Y174.69 E5.82624
G1 X203.227 Y175.169 E5.84892
G1 X203.822 Y175.849 E5.87902
G1 X204.227 Y176.384 E5.90137
G1 X205.007 Y177.581 E5.94896
G1 X205.345 Y178.195 E5.97231
G1 X205.813 Y179.216 E6.00972
G1 X206.078 Y179.947 E6.03562
G1 X206.449 Y181.31 E6.08268
G1 X206.599 Y182.16 E6.11143
G1 X206.724 Y183.648 E6.16117
G1 X206.741 Y184.091 E6.17593
G1 X206.663 Y192.387 E6.45229
G1 X206.617 Y193.001 E6.4728
G1 X206.493 Y193.601 E6.49321
G1 X206.35 Y194.121 E6.51117
G1 X206.148 Y194.704 E6.53173
G1 X205.948 Y195.122 E6.54716
G1 X205.691 Y195.597 E6.56515
G1 X205.363 Y196.119 E6.58569
G1 X205.103 Y196.447 E6.59963
G1 X204.701 Y196.911 E6.62008
G1 X204.268 Y197.35 E6.64062
G1 X203.947 Y197.612 E6.65442
G1 X203.517 Y197.932 E6.67227
G1 X203 Y198.267 E6.6928
G1 X202.6 Y198.466 E6.70768
G1 X202.104 Y198.685 E6.72574
G1 X201.525 Y198.897 E6.74628
G1 X201.074 Y199.006 E6.76173
G1 X200.544 Y199.107 E6.7797
G1 X199.933 Y199.183 E6.80021
G1 X199.47 Y199.187 E6.81564
G1 X198.932 Y199.166 E6.83357
G1 X198.319 Y199.102 E6.8541
G1 X197.881 Y199.006 E6.86904
G1 X197.358 Y198.865 E6.88708
G1 X196.774 Y198.667 E6.90762
G1 X196.357 Y198.469 E6.923
G1 X195.883 Y198.216 E6.9409
G1 X195.36 Y197.892 E6.96139
G1 X195.087 Y197.682 E6.97286
G1 X193.791 Y196.607 E7.02895
G1 X193.641 Y196.477 E7.03556
G1 X188.2 Y191.566 E7.27971
G1 X188.116 Y191.488 E7.28353
G1 X185.961 Y189.445 E7.38245
G1 X177.855 Y182.157 E7.74555
G1 X177.775 Y182.084 E7.74916
G1 X175.823 Y180.246 E7.83847
G1 X175.476 Y179.976 E7.85311
G1 X175.139 Y179.687 E7.8679
G1 X173.192 Y177.852 E7.95702
G1 X173.061 Y177.845 E7.96139
G1 X172.036 Y177.699 E7.99588
G1 X171.433 Y177.572 E8.0164
G1 X170.624 Y177.265 E8.04523
G1 X169.898 Y176.911 E8.07213
G1 X169.363 Y176.606 E8.09265
G1 X168.717 Y176.094 E8.1201
G1 X165.746 Y173.285 E8.2563
G1 X165.242 Y172.882 E8.27779
G1 X164.913 Y172.592 E8.2924
G1 X162.141 Y169.92 E8.42065
G1 X161.657 Y169.533 E8.4413
G1 X161.328 Y169.243 E8.4559
G1 X158.588 Y166.602 E8.58267
G1 X158.162 Y166.268 E8.6007
G1 X157.799 Y165.951 E8.61675
G1 X154.995 Y163.247 E8.74651
G1 X154.572 Y162.914 E8.76444
G1 X154.212 Y162.601 E8.78033
G1 X151.402 Y159.892 E8.91035
G1 X150.969 Y159.549 E8.92875
G1 X150.623 Y159.246 E8.94407
G1 X149.214 Y157.889 E9.00923
G1 X149.006 Y158.789 E9.04
G1 X148.828 Y159.379 E9.06053
G1 X148.552 Y159.985 E9.08271
G1 X148.294 Y160.46 E9.10072
G1 X147.965 Y160.981 E9.12124
G1 X147.695 Y161.321 E9.1357
G1 X147.317 Y161.753 E9.15483
G1 X146.882 Y162.189 E9.17534
G1 X146.551 Y162.455 E9.18949
G1 X146.116 Y162.774 E9.20745
G1 X145.597 Y163.106 E9.22798
G1 X144.818 Y163.447 E9.2563
G1 X143.924 Y163.747 E9.28771
G1 X143.329 Y163.905 E9.30822
G1 X142.466 Y163.994 E9.33712
G1 X141.928 Y164 E9.35504
G1 X141.313 Y163.967 E9.37556
G1 X140.603 Y163.826 E9.39967
G1 X140.115 Y163.69 E9.41655
G1 X139.784 Y163.774 E9.42792
G1 X139.255 Y163.881 E9.4459
G1 X138.644 Y163.963 E9.46643
G1 X138.18 Y163.973 E9.48189
G1 X137.643 Y163.958 E9.49979
G1 X137.03 Y163.901 E9.5203
G1 X136.63 Y163.82 E9.53389
G1 X136.087 Y163.685 E9.55253
G1 X135.5 Y163.498 E9.57305
G1 X135.13 Y163.334 E9.58653
G1 X134.648 Y163.096 E9.60444
G1 X134.114 Y162.788 E9.62497
G1 X133.721 Y162.495 E9.6413
G1 X133.278 Y162.128 E9.66046
G1 X132.83 Y161.705 E9.68099
G1 X132.515 Y161.33 E9.6973
G1 X132.19 Y160.899 E9.71528
G1 X131.852 Y160.384 E9.7358
G1 X131.496 Y159.598 E9.76454
G1 X131.187 Y158.709 E9.79589
G1 X131.023 Y158.116 E9.81639
G1 X131.003 Y157.979 E9.821
G1 X130.959 Y158.017 E9.82294
G1 X130.446 Y158.427 E9.84481
G1 X127.427 Y161.346 E9.9847
G1 X127.081 Y161.649 E10.00002
G1 X126.614 Y162.02 E10.01988
G1 X123.86 Y164.677 E10.14735
G1 X123.529 Y164.967 E10.16201
G1 X123.036 Y165.361 E10.18303
G1 X120.518 Y167.786 E10.29948
G1 X120.19 Y168.074 E10.31402
G1 X119.683 Y168.48 E10.33566
G1 X116.693 Y171.368 E10.47413
G1 X116.365 Y171.657 E10.48869
G1 X115.882 Y172.044 E10.50931
G1 X113.353 Y174.478 E10.62623
G1 X113.132 Y174.677 E10.63613
G1 X111.22 Y176.299 E10.71965
G1 X110.725 Y176.666 E10.74018
G1 X110.079 Y177.016 E10.76465
G1 X109.302 Y177.362 E10.79299
G1 X108.724 Y177.576 E10.81352
G1 X108.124 Y177.713 E10.83402
G1 X107.658 Y177.764 E10.84963
G1 X107.217 Y177.791 E10.86435
G1 X85.495 Y197.539 E11.84224
G1 X84.984 Y197.943 E11.86394
G1 X84.54 Y198.247 E11.88186
G1 X84.01 Y198.562 E11.9024
G1 X83.173 Y198.892 E11.93237
G1 X82.05 Y199.216 E11.9713
G1 X81.448 Y199.348 E11.99183
G1 X80.662 Y199.401 E12.01807
G1 X80.124 Y199.393 E12.036
G1 X79.51 Y199.344 E12.05651
G1 X79.072 Y199.259 E12.07138
G1 X78.546 Y199.131 E12.08941
G1 X77.958 Y198.947 E12.10993
G1 X77.534 Y198.759 E12.12538
G1 X77.053 Y198.517 E12.14332
G1 X76.522 Y198.205 E12.16383
G1 X75.863 Y197.666 E12.19219
G1 X75.112 Y196.93 E12.22722
G1 X74.701 Y196.472 E12.24772
G1 X74.353 Y195.963 E12.26825
G1 X74.048 Y195.355 E12.29091
G1 X73.689 Y194.488 E12.32217
G1 X73.491 Y193.905 E12.34268
G1 X73.37 Y193.301 E12.3632
G1 X73.328 Y192.736 E12.38207
G1 X73.26 Y187.746 E12.54831
G1 X73.272 Y187.337 E12.56194
G1 X73.614 Y182.631 E12.71911
G1 X73.749 Y181.803 E12.74705
G1 X74.143 Y180.256 E12.80023
G1 X74.324 Y179.693 E12.81993
G1 X74.73 Y178.658 E12.85696
G1 X75.075 Y177.955 E12.88305
G1 X75.777 Y176.781 E12.92861
G1 X76.127 Y176.274 E12.94913
G1 X76.382 Y175.978 E12.96215
G1 X77.478 Y174.804 E13.01565
G1 X77.719 Y174.563 E13.027
G1 X80.49 Y171.992 E13.15291
G1 X82.389 Y170.148 E13.24108
G1 X82.349 Y165.741 E13.38789
G1 X82.357 Y165.43 E13.39825
G1 X82.443 Y163.906 E13.4491
G1 X82.505 Y163.363 E13.4673
G1 X82.817 Y161.563 E13.52816
G1 X83.022 Y160.78 E13.55512
G1 X83.649 Y159.02 E13.61735
G1 X83.893 Y158.454 E13.63788
G1 X84.13 Y158.042 E13.65372
G1 X85.009 Y156.677 E13.7078
G1 X85.275 Y156.305 E13.72303
G1 X86.003 Y155.383 E13.76216
G1 X86.615 Y154.742 E13.79168
G1 X87.751 Y153.754 E13.84183
G1 X89.748 Y151.835 E13.93409
G1 X89.641 Y151.769 E13.93828
G1 X89.138 Y151.414 E13.95878
G1 X88.795 Y151.11 E13.97405
G1 X88.407 Y150.73 E13.99214
G1 X87.996 Y150.271 E14.01266
G1 X87.725 Y149.889 E14.02827
G1 X87.435 Y149.434 E14.04624
G1 X87.139 Y148.894 E14.06675
G1 X86.847 Y148.089 E14.09528
G1 X86.608 Y147.18 E14.12658
G1 X86.49 Y146.575 E14.14712
G1 X86.452 Y145.914 E14.16917
G1 X86.465 Y144.848 E14.20468
G1 X86.557 Y143.974 E14.23396
G1 X86.691 Y143.303 E14.25675
G1 X86.793 Y140.594 E14.34705
G1 X86.856 Y139.981 E14.36758
G1 X86.998 Y139.381 E14.38812
G1 X87.124 Y139.045 E14.40007
G1 X86.984 Y138.715 E14.41201
G1 X86.76 Y138.081 E14.43441
G1 X86.593 Y137.488 E14.45493
G1 X86.496 Y136.752 E14.47966
G1 X86.46 Y136.078 E14.50214
G1 X86.467 Y135.462 E14.52266
G1 X86.519 Y135.036 E14.53696
G1 X86.946 Y132.5 E14.62262
G1 X86.998 Y131.778 E14.64673
G1 X87.126 Y130.974 E14.67385
G1 X87.425 Y129.77 E14.71518
G1 X87.549 Y129.407 E14.72795
G1 X87.406 Y128.909 E14.74521
G1 X87.275 Y128.307 E14.76574
