;Generated by Cura LulzBot Edition GCodeWriter Version: 2.6.52
;FLAVOR:RepRap
;TIME:5833
;Filament used: 2.01205m
;Layer height: 0.18
;Generated with Cura_SteamEngine 2.6.52
;This G-Code has been generated specifically for the LulzBot TAZ 6 with standard extruder
G26                                 ; clear potential 'probe fail' condition
G21                                 ; set units to Millimetres
M107                                ; disable fans
G90                                 ; absolute positioning
M82                                 ; set extruder to absolute mode
G92 E0                              ; set extruder position to 0
M140 S110    ; start bed heating up
G28 XY                              ; home X and Y
G1 X-19 Y258 F1000                  ; move to safe homing position
M109 R175 ; soften filament before homing Z
G28 Z                               ; home Z
M109 R170   ; wait for extruder to reach wiping temp
G1 E-30 F100                        ; retract filament
G1 X-15 Y100 F3000                  ; move above wiper pad
G1 Z1                               ; push nozzle into wiper
G1 X-17 Y95 F1000                   ; slow wipe
G1 X-17 Y90 F1000                   ; slow wipe
G1 X-17 Y85 F1000                   ; slow wipe
G1 X-15 Y90 F1000                   ; slow wipe
G1 X-17 Y80 F1000                   ; slow wipe
G1 X-15 Y95 F1000                   ; slow wipe
G1 X-17 Y75 F2000                   ; fast wipe
G1 X-15 Y65 F2000                   ; fast wipe
G1 X-17 Y70 F2000                   ; fast wipe
G1 X-15 Y60 F2000                   ; fast wipe
G1 X-17 Y55 F2000                   ; fast wipe
G1 X-15 Y50 F2000                   ; fast wipe
G1 X-17 Y40 F2000                   ; fast wipe
G1 X-15 Y45 F2000                   ; fast wipe
G1 X-17 Y35 F2000                   ; fast wipe
G1 X-15 Y40 F2000                   ; fast wipe
G1 X-17 Y70 F2000                   ; fast wipe
G1 X-15 Y30 Z2 F2000                ; fast wipe
G1 X-17 Y35 F2000                   ; fast wipe
G1 X-15 Y25 F2000                   ; fast wipe
G1 X-17 Y30 F2000                   ; fast wipe
G1 X-15 Y25 Z1.5 F1000              ; slow wipe
G1 X-17 Y23 F1000                   ; slow wipe
G1 Z10                              ; raise extruder
M109 R170  ; wait for extruder to reach probe temp
G1 X-9 Y-9                          ; move above first probe point
M204 S100                           ; set probing acceleration
G29                                 ; start auto-leveling sequence
M204 S500                           ; restore standard acceleration
G1 X0 Y0 Z15 F5000                  ; move up off last probe point
G4 S1                               ; pause
M400                                ; wait for moves to finish
M117 Heating...                     ; progress indicator message on LCD
M109 R240  ; wait for extruder to reach printing temp
M190 S110    ; wait for bed to reach printing temp
G1 Z2 E0 F75                        ; prime tiny bit of filment into the nozzle
M117 TAZ 6 Printing...              ; progress indicator message on LCD

;LAYER_COUNT:22
;LAYER:0
M107
G0 F2625 X133.649 Y87.48 Z0.425
G0 X133.884 Y87.121
;TYPE:SKIRT
G1 F900 X134.5 Y86.267 E0.03508
G1 X135.086 Y85.597 E0.06473
G1 X136.271 Y84.475 E0.11908
G1 X136.98 Y83.921 E0.14906
G1 X137.279 Y83.73 E0.16087
G1 X137.819 Y83.433 E0.1814
G1 X138.392 Y83.208 E0.20191
G1 X139.234 Y83.021 E0.23064
G1 X139.453 Y82.993 E0.23799
G1 X140.068 Y82.955 E0.25852
G1 X140.682 Y82.997 E0.27902
G1 X141.286 Y83.117 E0.29953
G1 X141.87 Y83.315 E0.32007
G1 X142.385 Y83.566 E0.33916
G1 X142.957 Y83.888 E0.36102
G1 X143.473 Y84.224 E0.38153
G1 X143.942 Y84.625 E0.40209
G1 X144.19 Y84.886 E0.41408
G1 X145.733 Y86.636 E0.4918
G1 X146.109 Y87.123 E0.51229
G1 X146.433 Y87.682 E0.53381
G1 X147.014 Y88.864 E0.57769
G1 X147.249 Y89.433 E0.59819
G1 X147.433 Y90.159 E0.62314
G1 X147.599 Y91.131 E0.65599
G1 X147.663 Y91.744 E0.67652
G1 X147.616 Y92.628 E0.706
G1 X147.151 Y95.763 E0.81158
G1 X148.831 Y97.297 E0.88736
G1 X149.259 Y97.741 E0.9079
G1 X149.625 Y98.237 E0.92843
G1 X149.924 Y98.775 E0.94893
G1 X150.065 Y99.106 E0.96092
G1 X150.168 Y99.375 E0.97051
G1 X150.35 Y99.964 E0.99105
G1 X150.455 Y100.571 E1.01157
G1 X150.481 Y101.186 E1.03207
G1 X158.569 Y108.883 E1.40399
G1 X158.986 Y109.336 E1.4245
G1 X159.293 Y109.778 E1.44242
G1 X159.478 Y109.859 E1.44915
G1 X160.202 Y110.325 E1.47783
G1 X160.713 Y110.723 E1.4994
G1 X161.04 Y111.002 E1.51372
G1 X170.162 Y119.539 E1.92989
G1 X170.366 Y119.742 E1.93948
G1 X172.494 Y121.991 E2.04261
G1 X172.888 Y122.465 E2.06314
G1 X173.194 Y122.945 E2.08211
G1 X173.732 Y123.911 E2.11894
G1 X174.1 Y124.756 E2.14964
G1 X174.341 Y125.499 E2.17566
G1 X174.511 Y126.197 E2.19959
G1 X174.626 Y126.899 E2.22328
G1 X174.688 Y127.659 E2.24868
G1 X174.694 Y131.103 E2.3634
G1 X181.919 Y137.87 E2.69315
G1 X182.112 Y138.061 E2.70219
G1 X184.436 Y140.501 E2.81444
G1 X184.948 Y141.142 E2.84176
G1 X185.488 Y141.952 E2.87419
G1 X185.796 Y142.486 E2.89473
G1 X185.978 Y142.904 E2.90991
G1 X186.732 Y144.894 E2.9808
G1 X186.944 Y145.629 E3.00628
G1 X187.153 Y146.655 E3.04116
G1 X187.247 Y147.474 E3.06862
G1 X187.266 Y148.16 E3.09148
G1 X187.301 Y148.364 E3.09837
G1 X187.371 Y149.184 E3.12579
G1 X187.365 Y152.196 E3.22612
G1 X192.227 Y156.746 E3.44793
G1 X192.648 Y157.195 E3.46843
G1 X192.86 Y157.472 E3.48005
G1 X193.516 Y158.4 E3.51791
G1 X193.838 Y158.925 E3.53842
G1 X194.014 Y159.298 E3.55216
G1 X194.648 Y160.803 E3.60656
G1 X194.85 Y161.385 E3.62708
G1 X194.948 Y161.82 E3.64193
G1 X195.281 Y163.704 E3.70566
G1 X195.354 Y164.536 E3.73348
G1 X195.347 Y170.961 E3.9475
G1 X201.431 Y176.755 E4.22736
G1 X201.979 Y177.377 E4.25497
G1 X202.371 Y177.909 E4.27699
G1 X202.704 Y178.428 E4.29753
G1 X202.892 Y178.807 E4.31162
G1 X203.52 Y180.228 E4.36337
G1 X203.732 Y180.806 E4.38388
G1 X203.845 Y181.28 E4.40011
G1 X204.2 Y183.19 E4.46482
G1 X204.264 Y183.665 E4.48079
G1 X204.381 Y185.075 E4.52792
G1 X204.397 Y185.419 E4.53939
G1 X204.433 Y188.86 E4.65401
G1 X204.495 Y189.273 E4.66793
G1 X204.512 Y189.67 E4.68116
G1 X204.515 Y192.053 E4.76054
G1 X204.476 Y192.668 E4.78107
G1 X204.357 Y193.273 E4.80161
G1 X204.162 Y193.857 E4.82212
G1 X203.892 Y194.411 E4.84264
G1 X203.553 Y194.925 E4.86315
G1 X203.262 Y195.274 E4.87829
G1 X203.068 Y195.485 E4.88784
G1 X202.622 Y195.91 E4.90836
G1 X202.125 Y196.275 E4.9289
G1 X201.585 Y196.572 E4.94943
G1 X201.012 Y196.796 E4.96992
G1 X200.414 Y196.945 E4.99045
G1 X200.093 Y196.991 E5.00125
G1 X199.912 Y197.011 E5.00732
G1 X199.296 Y197.039 E5.02786
G1 X198.682 Y196.987 E5.04838
G1 X198.08 Y196.856 E5.06891
G1 X197.5 Y196.648 E5.08943
G1 X196.952 Y196.367 E5.10995
G1 X196.461 Y196.029 E5.1298
G1 X195.616 Y195.367 E5.16556
G1 X195.35 Y195.143 E5.17714
G1 X173.743 Y175.504 E6.14975
G1 X173.392 Y175.542 E6.16152
G1 X172.776 Y175.53 E6.18204
G1 X172.166 Y175.438 E6.20259
G1 X171.574 Y175.268 E6.2231
G1 X171.009 Y175.023 E6.24362
G1 X170.281 Y174.561 E6.27234
G1 X169.608 Y174.043 E6.30063
G1 X169.262 Y173.749 E6.31575
G1 X147.665 Y153.566 E7.3004
G1 X147.324 Y153.203 E7.31699
G1 X147.107 Y155.281 E7.38659
G1 X147.014 Y156.476 E7.42651
G1 X146.95 Y156.966 E7.44297
G1 X146.892 Y157.282 E7.45368
G1 X146.742 Y157.879 E7.47418
G1 X146.515 Y158.452 E7.49471
G1 X146.217 Y158.991 E7.51523
G1 X145.851 Y159.487 E7.53576
G1 X145.424 Y159.931 E7.55628
G1 X145.041 Y160.246 E7.5728
G1 X144.789 Y160.432 E7.58323
G1 X144.27 Y160.765 E7.60377
G1 X143.713 Y161.028 E7.62429
G1 X143.127 Y161.216 E7.64479
G1 X142.521 Y161.328 E7.66532
G1 X141.905 Y161.36 E7.68586
G1 X141.291 Y161.312 E7.70638
G1 X140.921 Y161.243 E7.71892
G1 X140.744 Y161.203 E7.72496
G1 X140.153 Y161.029 E7.74548
G1 X140.009 Y160.965 E7.75073
G1 X139.903 Y161.015 E7.75463
G1 X139.317 Y161.203 E7.77513
G1 X138.711 Y161.314 E7.79566
G1 X138.24 Y161.345 E7.81138
G1 X138.063 Y161.348 E7.81728
G1 X137.448 Y161.319 E7.83779
G1 X136.842 Y161.21 E7.8583
G1 X136.254 Y161.023 E7.87885
G1 X135.696 Y160.762 E7.89937
G1 X135.291 Y160.512 E7.91522
G1 X135.134 Y160.404 E7.92157
G1 X134.65 Y160.023 E7.94209
G1 X134.22 Y159.582 E7.9626
G1 X133.85 Y159.089 E7.98314
G1 X133.547 Y158.553 E8.00365
G1 X133.237 Y157.719 E8.03329
G1 X133.062 Y157.065 E8.05584
G1 X132.918 Y156.243 E8.08363
G1 X132.658 Y153.214 E8.1849
G1 X132.266 Y153.646 E8.20433
G1 X112.515 Y172.094 E9.1046
G1 X112.406 Y172.193 E9.1095
G1 X110.068 Y174.245 E9.21312
G1 X109.58 Y174.621 E9.23364
G1 X109.047 Y174.93 E9.25417
G1 X108.478 Y175.167 E9.2747
G1 X107.884 Y175.329 E9.29521
G1 X107.274 Y175.413 E9.31572
G1 X106.657 Y175.417 E9.33627
G1 X106.38 Y175.378 E9.34559
G1 X85.719 Y194.122 E10.27483
G1 X85.711 Y194.129 E10.27518
G1 X83.87 Y195.792 E10.35782
G1 X83.387 Y196.174 E10.37834
G1 X82.859 Y196.491 E10.39885
G1 X82.294 Y196.737 E10.41938
G1 X81.701 Y196.907 E10.43993
G1 X81.101 Y196.999 E10.46015
G1 X80.896 Y197.017 E10.467
G1 X80.281 Y197.031 E10.48749
G1 X79.668 Y196.965 E10.50803
G1 X79.069 Y196.82 E10.52856
G1 X78.357 Y196.534 E10.55412
G1 X78.195 Y196.453 E10.56015
G1 X77.663 Y196.142 E10.58068
G1 X77.175 Y195.765 E10.60122
G1 X76.741 Y195.328 E10.62173
G1 X76.367 Y194.839 E10.64224
G1 X76.133 Y194.448 E10.65742
G1 X76.044 Y194.282 E10.66369
G1 X75.788 Y193.722 E10.6842
G1 X75.608 Y193.133 E10.70472
G1 X75.505 Y192.525 E10.72526
G1 X75.48 Y192.026 E10.7419
G1 X75.486 Y189.676 E10.82018
G1 X75.553 Y188.891 E10.84643
G1 X75.591 Y188.671 E10.85386
G1 X75.603 Y185.43 E10.96182
G1 X75.645 Y184.815 E10.98236
G1 X75.703 Y184.477 E10.99378
G1 X75.711 Y184.438 E10.99511
G1 X75.727 Y183.878 E11.01377
G1 X75.824 Y183.051 E11.04151
G1 X76.268 Y180.905 E11.1145
G1 X76.431 Y180.311 E11.13502
G1 X76.63 Y179.826 E11.15248
G1 X77.2 Y178.628 E11.19668
G1 X77.5 Y178.09 E11.21719
G1 X77.689 Y177.819 E11.2282
G1 X78.049 Y177.339 E11.24819
G1 X78.582 Y176.741 E11.27487
G1 X84.246 Y171.373 E11.53481
G1 X84.642 Y170.973 E11.55356
G1 X84.644 Y164.542 E11.76778
G1 X84.674 Y164.013 E11.78543
G1 X84.793 Y162.953 E11.82096
G1 X84.93 Y162.235 E11.84531
G1 X85.301 Y160.872 E11.89236
G1 X85.501 Y160.29 E11.91286
G1 X85.706 Y159.861 E11.9287
G1 X86.469 Y158.45 E11.98213
G1 X86.796 Y157.928 E12.00265
G1 X87.154 Y157.49 E12.02149
G1 X88.565 Y155.959 E12.09085
G1 X88.871 Y155.656 E12.10519
G1 X92.166 Y152.676 E12.25318
G1 X92.623 Y152.228 E12.2745
G1 X92.628 Y149.18 E12.37603
G1 X92.669 Y148.565 E12.39656
G1 X92.752 Y148.107 E12.41206
G1 X92.759 Y148.075 E12.41315
G1 X92.953 Y146.229 E12.47498
G1 X93.057 Y145.621 E12.49553
G1 X93.141 Y145.315 E12.5061
G1 X93.604 Y143.824 E12.5581
G1 X93.824 Y143.249 E12.57861
G1 X94.042 Y142.831 E12.59432
G1 X94.764 Y141.599 E12.64188
G1 X95.065 Y141.147 E12.65997
G1 X95.674 Y140.337 E12.69373
G1 X96.16 Y139.786 E12.7182
G1 X100.621 Y135.448 E12.92547
G1 X100.7 Y135.373 E12.9291
G1 X105.307 Y131.095 E13.13852
G1 X105.303 Y131.027 E13.14079
G1 X105.43 Y126.815 E13.28116
G1 X105.489 Y126.202 E13.30167
G1 X105.666 Y125.474 E13.32663
G1 X105.931 Y124.668 E13.35489
G1 X106.161 Y124.097 E13.3754
G1 X106.319 Y123.796 E13.38672
G1 X106.824 Y122.912 E13.42063
G1 X107.236 Y122.304 E13.4451
G1 X107.747 Y121.664 E13.47238
G1 X108.178 Y121.193 E13.49364
G1 X113.574 Y116.04 E13.74218
G1 X113.63 Y115.988 E13.74473
G1 X119.224 Y110.815 E13.99853
G1 X119.685 Y110.439 E14.01834
G1 X120.068 Y110.165 E14.03403
G1 X120.592 Y109.84 E14.05457
G1 X120.695 Y109.794 E14.05833
G1 X120.866 Y109.529 E14.06883
G1 X121.366 Y108.955 E14.09419
G1 X123.686 Y106.689 E14.20221
G1 X123.738 Y106.639 E14.20462
G1 X129.669 Y101.018 E14.47681
G1 X129.675 Y100.749 E14.48577
G1 X129.722 Y100.315 E14.50031
G1 X129.828 Y99.708 E14.52084
G1 X130.011 Y99.12 E14.54135
G1 X130.269 Y98.56 E14.56189
G1 X130.598 Y98.039 E14.58242
G1 X131.125 Y97.428 E14.60929
G1 X132.832 Y95.76 E14.68879
G1 X132.387 Y92.855 E14.78669
G1 X132.333 Y92.242 E14.80719
G1 X132.358 Y91.639 E14.82729
G1 X132.457 Y90.698 E14.85881
G1 X132.561 Y90.091 E14.87932
G1 X132.815 Y89.324 E14.90624
G1 X133.37 Y88.029 E14.95317
G1 X133.649 Y87.48 E14.97368
G1 X133.884 Y87.121 E14.98797
G0 F2625 X134.289 Y87.414
G1 F900 X134.905 Y86.56 E15.02305
G1 X135.43 Y85.96 E15.04961
G1 X136.615 Y84.838 E15.10397
G1 X137.249 Y84.342 E15.13078
G1 X137.548 Y84.151 E15.1426
G1 X138.06 Y83.872 E15.16202
G1 X138.604 Y83.665 E15.18141
G1 X139.297 Y83.517 E15.20501
G1 X139.516 Y83.489 E15.21237
G1 X140.098 Y83.455 E15.23179
G1 X140.679 Y83.501 E15.2512
G1 X141.248 Y83.626 E15.27061
G1 X141.795 Y83.827 E15.29002
G1 X142.14 Y84.001 E15.30289
G1 X142.712 Y84.323 E15.32475
G1 X143.199 Y84.644 E15.34418
G1 X143.815 Y85.216 E15.37219
G1 X145.358 Y86.966 E15.4499
G1 X145.712 Y87.429 E15.46932
G1 X145.984 Y87.902 E15.48749
G1 X146.565 Y89.084 E15.53136
G1 X146.786 Y89.624 E15.5508
G1 X146.94 Y90.244 E15.57208
G1 X147.106 Y91.216 E15.60493
G1 X147.165 Y91.795 E15.62431
G1 X147.121 Y92.555 E15.64967
G1 X146.617 Y95.952 E15.76406
G1 X148.494 Y97.666 E15.84873
G1 X148.897 Y98.088 E15.86817
G1 X149.238 Y98.56 E15.88757
G1 X149.598 Y99.285 E15.91453
G1 X149.701 Y99.554 E15.92413
G1 X149.872 Y100.112 E15.94357
G1 X149.964 Y100.687 E15.96296
G1 X149.978 Y101.269 E15.98236
G1 X149.965 Y101.385 E15.98624
G1 X158.224 Y109.245 E16.36603
G1 X158.618 Y109.675 E16.38545
G1 X158.954 Y110.164 E16.40522
G1 X158.962 Y110.178 E16.40575
G1 X159.274 Y110.317 E16.41713
G1 X159.895 Y110.719 E16.44177
G1 X160.406 Y111.117 E16.46335
G1 X160.698 Y111.367 E16.47615
G1 X169.82 Y119.904 E16.89232
G1 X170.003 Y120.086 E16.90092
G1 X172.131 Y122.335 E17.00405
G1 X172.502 Y122.785 E17.02348
G1 X172.757 Y123.188 E17.03937
G1 X173.295 Y124.154 E17.0762
G1 X173.625 Y124.911 E17.10371
G1 X173.866 Y125.654 E17.12972
G1 X174.017 Y126.278 E17.15111
G1 X174.132 Y126.98 E17.17481
G1 X174.188 Y127.66 E17.19753
G1 X174.194 Y131.214 E17.31592
G1 X174.187 Y131.314 E17.31926
G1 X181.577 Y138.235 E17.65652
G1 X181.749 Y138.406 E17.6646
G1 X184.073 Y140.846 E17.77684
G1 X184.532 Y141.42 E17.80132
G1 X185.072 Y142.23 E17.83375
G1 X185.361 Y142.735 E17.85313
G1 X185.51 Y143.081 E17.86568
G1 X186.264 Y145.071 E17.93657
G1 X186.454 Y145.729 E17.95938
G1 X186.663 Y146.755 E17.99426
G1 X186.747 Y147.487 E18.0188
G1 X186.767 Y148.204 E18.0427
G1 X186.809 Y148.449 E18.05098
G1 X186.871 Y149.183 E18.07551
G1 X186.864 Y152.412 E18.18307
G1 X191.885 Y157.111 E18.41214
G1 X192.451 Y157.761 E18.44085
G1 X193.107 Y158.689 E18.47871
G1 X193.41 Y159.187 E18.49813
G1 X193.554 Y159.492 E18.50936
G1 X194.188 Y160.997 E18.56376
G1 X194.377 Y161.548 E18.58316
G1 X194.456 Y161.907 E18.59541
G1 X194.789 Y163.791 E18.65914
G1 X194.854 Y164.535 E18.68402
G1 X194.847 Y171.176 E18.90523
G1 X201.086 Y177.118 E19.19223
G1 X201.576 Y177.674 E19.21691
G1 X201.968 Y178.206 E19.23892
G1 X202.281 Y178.698 E19.25835
G1 X202.434 Y179.009 E19.26989
G1 X203.062 Y180.43 E19.32164
G1 X203.261 Y180.978 E19.34107
G1 X203.353 Y181.371 E19.35451
G1 X203.708 Y183.281 E19.41922
G1 X203.765 Y183.707 E19.43354
G1 X203.882 Y185.117 E19.48067
G1 X203.897 Y185.424 E19.49091
G1 X203.933 Y188.9 E19.6067
G1 X203.999 Y189.347 E19.62175
G1 X204.012 Y189.671 E19.63255
G1 X204.015 Y192.054 E19.71193
G1 X203.976 Y192.635 E19.73133
G1 X203.857 Y193.206 E19.75076
G1 X203.662 Y193.755 E19.77016
G1 X203.393 Y194.272 E19.78958
G1 X202.894 Y194.936 E19.81724
G1 X202.7 Y195.147 E19.82679
G1 X202.277 Y195.547 E19.84618
G1 X201.803 Y195.887 E19.86562
G1 X201.287 Y196.158 E19.88503
G1 X200.739 Y196.356 E19.90444
G1 X200.038 Y196.494 E19.92824
G1 X199.857 Y196.514 E19.9343
G1 X199.275 Y196.538 E19.95371
G1 X198.694 Y196.483 E19.97315
G1 X198.127 Y196.348 E19.99256
G1 X197.584 Y196.137 E20.01197
G1 X197.075 Y195.854 E20.03137
G1 X196.769 Y195.636 E20.04388
G1 X195.924 Y194.974 E20.07964
G1 X195.686 Y194.773 E20.09001
G1 X173.912 Y174.982 E21.07015
G1 X173.886 Y174.988 E21.07104
G1 X173.306 Y175.045 E21.09045
G1 X172.724 Y175.023 E21.10985
G1 X172.15 Y174.921 E21.12927
G1 X171.596 Y174.741 E21.14867
G1 X171.071 Y174.488 E21.16809
G1 X170.586 Y174.165 E21.1875
G1 X169.913 Y173.647 E21.21579
G1 X169.603 Y173.384 E21.22933
G1 X148.006 Y153.201 E22.21398
