;Generated by Cura LulzBot Edition GCodeWriter Version: 2.6.52
;FLAVOR:RepRap
;TIME:376
;Filament used: 0.105757m
;Layer height: 0.18
;Generated with Cura_SteamEngine 2.6.52
;This G-Code has been generated specifically for the LulzBot TAZ 6 with standard extruder
G26                                 ; clear potential 'probe fail' condition
G21                                 ; set units to Millimetres
M107                                ; disable fans
G90                                 ; absolute positioning
M82                                 ; set extruder to absolute mode
G92 E0                              ; set extruder position to 0
M140 S110    ; start bed heating up
G28 XY                              ; home X and Y
G1 X-19 Y258 F1000                  ; move to safe homing position
M109 R175 ; soften filament before homing Z
G28 Z                               ; home Z
M109 R170   ; wait for extruder to reach wiping temp
G1 E-30 F100                        ; retract filament
G1 X-15 Y100 F3000                  ; move above wiper pad
G1 Z1                               ; push nozzle into wiper
G1 X-17 Y95 F1000                   ; slow wipe
G1 X-17 Y90 F1000                   ; slow wipe
G1 X-17 Y85 F1000                   ; slow wipe
G1 X-15 Y90 F1000                   ; slow wipe
G1 X-17 Y80 F1000                   ; slow wipe
G1 X-15 Y95 F1000                   ; slow wipe
G1 X-17 Y75 F2000                   ; fast wipe
G1 X-15 Y65 F2000                   ; fast wipe
G1 X-17 Y70 F2000                   ; fast wipe
G1 X-15 Y60 F2000                   ; fast wipe
G1 X-17 Y55 F2000                   ; fast wipe
G1 X-15 Y50 F2000                   ; fast wipe
G1 X-17 Y40 F2000                   ; fast wipe
G1 X-15 Y45 F2000                   ; fast wipe
G1 X-17 Y35 F2000                   ; fast wipe
G1 X-15 Y40 F2000                   ; fast wipe
G1 X-17 Y70 F2000                   ; fast wipe
G1 X-15 Y30 Z2 F2000                ; fast wipe
G1 X-17 Y35 F2000                   ; fast wipe
G1 X-15 Y25 F2000                   ; fast wipe
G1 X-17 Y30 F2000                   ; fast wipe
G1 X-15 Y25 Z1.5 F1000              ; slow wipe
G1 X-17 Y23 F1000                   ; slow wipe
G1 Z10                              ; raise extruder
M109 R170  ; wait for extruder to reach probe temp
G1 X-9 Y-9                          ; move above first probe point
M204 S100                           ; set probing acceleration
G29                                 ; start auto-leveling sequence
M204 S500                           ; restore standard acceleration
G1 X0 Y0 Z15 F5000                  ; move up off last probe point
G4 S1                               ; pause
M400                                ; wait for moves to finish
M117 Heating...                     ; progress indicator message on LCD
M109 R240  ; wait for extruder to reach printing temp
M190 S110    ; wait for bed to reach printing temp
G1 Z2 E0 F75                        ; prime tiny bit of filment into the nozzle
M117 TAZ 6 Printing...              ; progress indicator message on LCD

;LAYER_COUNT:34
;LAYER:0
M107
G0 F2625 X132.149 Y119.996 Z0.425
;TYPE:SKIRT
G1 F900 X132.609 Y119.587 E0.0205
G1 X133.119 Y119.24 E0.04105
G1 X133.669 Y118.963 E0.06156
G1 X134.25 Y118.759 E0.08208
G1 X134.853 Y118.631 E0.10261
G1 X135.53 Y118.583 E0.12522
G1 X144.47 Y118.583 E0.42301
G1 X145.085 Y118.623 E0.44354
G1 X145.689 Y118.742 E0.46405
G1 X146.273 Y118.939 E0.48458
G1 X146.827 Y119.209 E0.50511
G1 X147.341 Y119.549 E0.52563
G1 X147.807 Y119.952 E0.54616
G1 X148.216 Y120.412 E0.56666
G1 X148.563 Y120.922 E0.58721
G1 X148.84 Y121.472 E0.60772
G1 X149.044 Y122.053 E0.62823
G1 X149.172 Y122.656 E0.64877
G1 X149.22 Y123.333 E0.67137
G1 X149.22 Y156.667 E1.78174
G1 X149.18 Y157.282 E1.80227
G1 X149.061 Y157.886 E1.82278
G1 X148.864 Y158.47 E1.84331
G1 X148.594 Y159.024 E1.86384
G1 X148.254 Y159.538 E1.88436
G1 X147.851 Y160.004 E1.90489
G1 X147.391 Y160.413 E1.92539
G1 X146.881 Y160.76 E1.94594
G1 X146.331 Y161.037 E1.96645
G1 X145.75 Y161.241 E1.98696
G1 X145.147 Y161.369 E2.0075
G1 X144.47 Y161.417 E2.0301
G1 X135.53 Y161.417 E2.3279
G1 X134.915 Y161.377 E2.34843
G1 X134.311 Y161.258 E2.36893
G1 X133.727 Y161.061 E2.38946
G1 X133.173 Y160.791 E2.40999
G1 X132.659 Y160.451 E2.43052
G1 X132.193 Y160.048 E2.45104
G1 X131.784 Y159.588 E2.47155
G1 X131.437 Y159.078 E2.4921
G1 X131.16 Y158.528 E2.51261
G1 X130.956 Y157.947 E2.53312
G1 X130.828 Y157.344 E2.55365
G1 X130.78 Y156.667 E2.57626
G1 X130.78 Y123.333 E3.68663
G1 X130.82 Y122.718 E3.70716
G1 X130.939 Y122.114 E3.72766
G1 X131.136 Y121.53 E3.74819
G1 X131.406 Y120.976 E3.76872
G1 X131.746 Y120.462 E3.78925
G1 X132.149 Y119.996 E3.80977
G0 F2625 X132.641 Y120.216
G1 F900 X133.095 Y119.85 E3.8292
G1 X133.594 Y119.55 E3.84859
G1 X134.13 Y119.32 E3.86802
G1 X134.692 Y119.166 E3.88743
G1 X135.53 Y119.083 E3.91548
G1 X144.47 Y119.083 E4.21328
G1 X145.051 Y119.123 E4.23268
G1 X145.622 Y119.242 E4.25211
G1 X146.171 Y119.438 E4.27152
G1 X146.687 Y119.707 E4.29091
G1 X147.163 Y120.045 E4.31035
G1 X147.587 Y120.444 E4.32975
G1 X147.953 Y120.898 E4.34917
G1 X148.253 Y121.397 E4.36857
G1 X148.483 Y121.933 E4.388
G1 X148.637 Y122.495 E4.40741
G1 X148.72 Y123.333 E4.43546
G1 X148.72 Y156.667 E5.54583
G1 X148.68 Y157.248 E5.56522
G1 X148.561 Y157.819 E5.58465
G1 X148.365 Y158.368 E5.60407
G1 X148.096 Y158.884 E5.62345
G1 X147.758 Y159.36 E5.6429
G1 X147.359 Y159.784 E5.6623
G1 X146.905 Y160.15 E5.68172
G1 X146.406 Y160.45 E5.70111
G1 X145.87 Y160.68 E5.72054
G1 X145.308 Y160.834 E5.73995
G1 X144.47 Y160.917 E5.768
G1 X135.53 Y160.917 E6.0658
G1 X134.949 Y160.877 E6.0852
G1 X134.378 Y160.758 E6.10463
G1 X133.829 Y160.562 E6.12405
G1 X133.313 Y160.293 E6.14343
G1 X132.837 Y159.955 E6.16288
G1 X132.413 Y159.556 E6.18227
G1 X132.047 Y159.102 E6.20169
G1 X131.747 Y158.603 E6.22109
G1 X131.517 Y158.067 E6.24052
G1 X131.363 Y157.505 E6.25993
G1 X131.28 Y156.667 E6.28798
G1 X131.28 Y123.333 E7.39835
G1 X131.32 Y122.752 E7.41775
G1 X131.439 Y122.181 E7.43717
G1 X131.635 Y121.632 E7.45659
G1 X131.904 Y121.116 E7.47598
G1 X132.242 Y120.64 E7.49542
G1 X132.641 Y120.216 E7.51482
G0 F2625 X133.131 Y120.451
G1 F900 X133.576 Y120.132 E7.53305
G1 X134.063 Y119.882 E7.55129
G1 X134.581 Y119.705 E7.56952
G1 X135.119 Y119.606 E7.58775
G1 X135.53 Y119.583 E7.60146
G1 X144.47 Y119.583 E7.89925
G1 X145.016 Y119.623 E7.91749
G1 X145.55 Y119.742 E7.93571
G1 X146.061 Y119.937 E7.95393
G1 X146.539 Y120.205 E7.97219
G1 X146.972 Y120.54 E7.99042
G1 X147.352 Y120.934 E8.00866
G1 X147.671 Y121.379 E8.02689
G1 X147.921 Y121.866 E8.04513
G1 X148.098 Y122.384 E8.06336
G1 X148.197 Y122.922 E8.08158
G1 X148.22 Y123.333 E8.0953
G1 X148.22 Y156.667 E9.20566
G1 X148.18 Y157.213 E9.2239
G1 X148.061 Y157.747 E9.24212
G1 X147.866 Y158.258 E9.26034
G1 X147.598 Y158.736 E9.2786
G1 X147.263 Y159.169 E9.29683
G1 X146.869 Y159.549 E9.31507
G1 X146.424 Y159.868 E9.33331
G1 X145.937 Y160.118 E9.35154
G1 X145.419 Y160.295 E9.36977
G1 X144.881 Y160.394 E9.388
G1 X144.47 Y160.417 E9.40171
G1 X135.53 Y160.417 E9.6995
G1 X134.984 Y160.377 E9.71774
G1 X134.45 Y160.258 E9.73596
G1 X133.939 Y160.063 E9.75418
G1 X133.461 Y159.795 E9.77244
G1 X133.028 Y159.46 E9.79067
G1 X132.648 Y159.066 E9.80891
G1 X132.329 Y158.621 E9.82714
G1 X132.079 Y158.134 E9.84538
G1 X131.902 Y157.616 E9.86361
G1 X131.803 Y157.078 E9.88184
G1 X131.78 Y156.667 E9.89555
G1 X131.78 Y123.333 E11.00592
G1 X131.82 Y122.787 E11.02415
G1 X131.939 Y122.253 E11.04238
G1 X132.134 Y121.742 E11.06059
G1 X132.402 Y121.264 E11.07885
G1 X132.737 Y120.831 E11.09708
G1 X133.131 Y120.451 E11.11532
G0 F2625 X133.617 Y120.705
G1 F900 X134.052 Y120.439 E11.1323
G1 X134.522 Y120.243 E11.14927
G1 X135.017 Y120.124 E11.16622
G1 X135.53 Y120.083 E11.18337
G1 X144.47 Y120.083 E11.48116
G1 X144.978 Y120.123 E11.49814
G1 X145.473 Y120.242 E11.51509
G1 X145.944 Y120.437 E11.53207
G1 X146.379 Y120.703 E11.54906
G1 X146.766 Y121.033 E11.566
G1 X147.098 Y121.42 E11.58298
G1 X147.364 Y121.855 E11.59997
G1 X147.56 Y122.325 E11.61693
G1 X147.679 Y122.82 E11.63389
G1 X147.72 Y123.333 E11.65103
G1 X147.72 Y156.667 E12.7614
G1 X147.68 Y157.175 E12.77837
G1 X147.561 Y157.67 E12.79533
G1 X147.366 Y158.141 E12.81231
G1 X147.1 Y158.576 E12.8293
G1 X146.77 Y158.963 E12.84624
G1 X146.383 Y159.295 E12.86322
G1 X145.948 Y159.561 E12.88021
G1 X145.478 Y159.757 E12.89717
G1 X144.983 Y159.876 E12.91413
G1 X144.47 Y159.917 E12.93127
G1 X135.53 Y159.917 E13.22907
G1 X135.022 Y159.877 E13.24604
G1 X134.527 Y159.758 E13.263
G1 X134.056 Y159.563 E13.27998
G1 X133.621 Y159.297 E13.29696
G1 X133.234 Y158.967 E13.31391
G1 X132.902 Y158.58 E13.33089
G1 X132.636 Y158.145 E13.34788
G1 X132.44 Y157.675 E13.36484
G1 X132.321 Y157.18 E13.3818
G1 X132.28 Y156.667 E13.39894
G1 X132.28 Y123.333 E14.50931
G1 X132.32 Y122.825 E14.52628
G1 X132.439 Y122.33 E14.54324
G1 X132.634 Y121.859 E14.56022
G1 X132.9 Y121.424 E14.5772
G1 X133.23 Y121.037 E14.59415
G1 X133.617 Y120.705 E14.61113
G0 F2625 X134.099 Y120.984
G1 F900 X134.519 Y120.776 E14.62674
G1 X134.968 Y120.641 E14.64236
G1 X135.53 Y120.583 E14.66118
G1 X144.47 Y120.583 E14.95897
G1 X144.937 Y120.623 E14.97459
G1 X145.39 Y120.742 E14.99019
G1 X145.817 Y120.935 E15.0058
G1 X146.204 Y121.199 E15.0214
G1 X146.542 Y121.524 E15.03702
G1 X146.819 Y121.902 E15.05263
G1 X147.027 Y122.322 E15.06824
G1 X147.162 Y122.771 E15.08386
G1 X147.22 Y123.333 E15.10268
G1 X147.22 Y156.667 E16.21305
G1 X147.18 Y157.134 E16.22866
G1 X147.061 Y157.587 E16.24426
G1 X146.868 Y158.014 E16.25987
G1 X146.604 Y158.401 E16.27548
G1 X146.279 Y158.739 E16.2911
G1 X145.901 Y159.016 E16.30671
G1 X145.481 Y159.224 E16.32232
G1 X145.032 Y159.359 E16.33794
G1 X144.47 Y159.417 E16.35676
G1 X135.53 Y159.417 E16.65455
G1 X135.063 Y159.377 E16.67016
G1 X134.61 Y159.258 E16.68577
G1 X134.183 Y159.065 E16.70138
G1 X133.796 Y158.801 E16.71698
G1 X133.458 Y158.476 E16.7326
G1 X133.181 Y158.098 E16.74821
G1 X132.973 Y157.678 E16.76382
G1 X132.838 Y157.229 E16.77944
G1 X132.78 Y156.667 E16.79826
G1 X132.78 Y123.333 E17.90863
G1 X132.82 Y122.866 E17.92424
G1 X132.939 Y122.413 E17.93984
G1 X133.132 Y121.986 E17.95545
G1 X133.396 Y121.599 E17.97106
G1 X133.721 Y121.261 E17.98667
G1 X134.099 Y120.984 E18.00228
G0 F2625 X134.209 Y121.512
G1 F900 X134.574 Y121.296 E18.01641
G1 X134.973 Y121.153 E18.03053
G1 X135.53 Y121.083 E18.04923
G1 X144.47 Y121.083 E18.34703
G1 X144.892 Y121.123 E18.36115
G1 X145.299 Y121.241 E18.37526
G1 X145.676 Y121.434 E18.38937
G1 X146.011 Y121.694 E18.40349
G1 X146.291 Y122.012 E18.41761
G1 X146.507 Y122.377 E18.43174
G1 X146.65 Y122.776 E18.44585
G1 X146.72 Y123.333 E18.46455
G1 X146.72 Y156.667 E19.57492
G1 X146.68 Y157.089 E19.58904
G1 X146.562 Y157.496 E19.60316
G1 X146.369 Y157.873 E19.61727
G1 X146.109 Y158.208 E19.63139
G1 X145.791 Y158.488 E19.6455
G1 X145.426 Y158.704 E19.65963
G1 X145.027 Y158.847 E19.67375
G1 X144.47 Y158.917 E19.69245
G1 X135.53 Y158.917 E19.99025
G1 X135.108 Y158.877 E20.00437
G1 X134.701 Y158.759 E20.01848
G1 X134.324 Y158.566 E20.03259
G1 X133.989 Y158.306 E20.04671
G1 X133.709 Y157.988 E20.06083
G1 X133.493 Y157.623 E20.07496
G1 X133.35 Y157.224 E20.08907
G1 X133.28 Y156.667 E20.10777
G1 X133.28 Y123.333 E21.21814
G1 X133.32 Y122.911 E21.23226
G1 X133.438 Y122.504 E21.24638
G1 X133.631 Y122.127 E21.26049
G1 X133.891 Y121.792 E21.27461
G1 X134.209 Y121.512 E21.28872
G0 F2625 X134.382 Y122.012
G1 F900 X134.689 Y121.798 E21.30119
G1 X135.034 Y121.655 E21.31363
G1 X135.53 Y121.583 E21.33033
G1 X144.47 Y121.583 E21.62812
G1 X144.841 Y121.623 E21.64055
G1 X145.196 Y121.741 E21.65301
G1 X145.518 Y121.931 E21.66547
G1 X145.791 Y122.185 E21.67789
G1 X146.005 Y122.492 E21.69035
G1 X146.148 Y122.837 E21.70279
G1 X146.22 Y123.333 E21.71949
G1 X146.22 Y156.667 E22.82985
G1 X146.18 Y157.038 E22.84228
G1 X146.062 Y157.393 E22.85475
G1 X145.872 Y157.715 E22.8672
G1 X145.618 Y157.988 E22.87962
G1 X145.311 Y158.202 E22.89209
G1 X144.966 Y158.345 E22.90453
G1 X144.47 Y158.417 E22.92122
G1 X135.53 Y158.417 E23.21902
G1 X135.159 Y158.377 E23.23145
G1 X134.804 Y158.259 E23.24391
G1 X134.482 Y158.069 E23.25636
G1 X134.209 Y157.815 E23.26878
G1 X133.995 Y157.508 E23.28125
G1 X133.852 Y157.163 E23.29369
G1 X133.78 Y156.667 E23.31038
G1 X133.78 Y123.333 E24.42075
G1 X133.82 Y122.962 E24.43318
G1 X133.938 Y122.607 E24.44564
G1 X134.128 Y122.285 E24.4581
G1 X134.382 Y122.012 E24.47052
G0 F2625 X134.868 Y122.273
G1 F900 X135.155 Y122.141 E24.48104
G1 X135.53 Y122.083 E24.49368
G1 X144.47 Y122.083 E24.79147
G1 X144.783 Y122.123 E24.80199
G1 X145.076 Y122.24 E24.81249
G1 X145.331 Y122.426 E24.82301
G1 X145.53 Y122.671 E24.83352
G1 X145.662 Y122.958 E24.84404
G1 X145.72 Y123.333 E24.85668
G1 X145.72 Y156.667 E25.96705
G1 X145.68 Y156.98 E25.97756
G1 X145.563 Y157.273 E25.98807
G1 X145.377 Y157.528 E25.99859
G1 X145.132 Y157.727 E26.0091
G1 X144.845 Y157.859 E26.01962
G1 X144.47 Y157.917 E26.03226
G1 X135.53 Y157.917 E26.33006
G1 X135.217 Y157.877 E26.34057
G1 X134.924 Y157.76 E26.35108
G1 X134.669 Y157.574 E26.36159
G1 X134.47 Y157.329 E26.37211
G1 X134.338 Y157.042 E26.38263
G1 X134.28 Y156.667 E26.39527
G1 X134.28 Y123.333 E27.50564
G1 X134.32 Y123.02 E27.51615
G1 X134.437 Y122.727 E27.52666
G1 X134.623 Y122.472 E27.53717
G1 X134.868 Y122.273 E27.54768
G0 F2625 X135.53 Y122.583
G1 F900 X144.47 Y122.583 E27.84548
G1 X144.711 Y122.623 E27.85362
G1 X144.926 Y122.738 E27.86174
G1 X145.093 Y122.916 E27.86987
G1 X145.194 Y123.138 E27.87799
G1 X145.22 Y123.333 E27.88454
G1 X145.22 Y156.667 E28.99491
G1 X145.18 Y156.908 E29.00305
G1 X145.065 Y157.123 E29.01117
G1 X144.887 Y157.29 E29.0193
G1 X144.665 Y157.391 E29.02743
G1 X144.47 Y157.417 E29.03398
G1 X135.53 Y157.417 E29.33177
G1 X135.289 Y157.377 E29.33991
G1 X135.074 Y157.262 E29.34803
G1 X134.907 Y157.084 E29.35616
G1 X134.806 Y156.862 E29.36429
G1 X134.78 Y156.667 E29.37084
G1 X134.78 Y123.333 E30.48121
G1 X134.82 Y123.092 E30.48935
G1 X134.935 Y122.877 E30.49747
G1 X135.113 Y122.71 E30.5056
G1 X135.335 Y122.609 E30.51372
G1 X135.53 Y122.583 E30.52028
G0 F2625 X135.53 Y123.083
G1 F900 X144.47 Y123.083 E30.81807
G1 X144.604 Y123.122 E30.82272
G1 X144.697 Y123.228 E30.82742
G1 X144.72 Y123.333 E30.831
G1 X144.72 Y156.667 E31.94136
G1 X144.681 Y156.801 E31.94601
G1 X144.575 Y156.894 E31.95071
G1 X144.47 Y156.917 E31.95429
G1 X135.53 Y156.917 E32.25209
G1 X135.396 Y156.878 E32.25673
G1 X135.303 Y156.772 E32.26143
G1 X135.28 Y156.667 E32.26501
G1 X135.28 Y123.333 E33.37538
G1 X135.319 Y123.199 E33.38003
G1 X135.425 Y123.106 E33.38473
G1 X135.53 Y123.083 E33.38831
G0 F2625 X135.78 Y123.583
;TYPE:WALL-OUTER
G1 F900 X144.22 Y123.583 E33.66945
G1 X144.22 Y156.417 E34.76316
G1 X135.78 Y156.417 E35.0443
G1 X135.78 Y123.583 E36.13801
G0 F2625 X136.03 Y123.583
G0 X136.35 Y124.153
G0 X138.576 Y134.85
G0 X139.176 Y134.85
G1 F900 X139.176 Y148.708 E36.59962
G1 X141.424 Y148.708 E36.67451
G1 X141.424 Y134.85 E37.13612
G1 X139.176 Y134.85 E37.211
G0 F2625 X139.176 Y135.1
G0 X138.676 Y134.35
;TYPE:WALL-INNER
G1 F900 X138.676 Y149.208 E37.70593
G1 X141.924 Y149.208 E37.81412
G1 X141.924 Y134.35 E38.30905
G1 X138.676 Y134.35 E38.41724
G0 F2625 X138.606 Y134.28
G0 X136.35 Y124.153
G0 X136.28 Y124.083
G1 F900 X143.72 Y124.083 E38.66507
G1 X143.72 Y155.917 E39.72547
G1 X136.28 Y155.917 E39.9733
G1 X136.28 Y124.083 E41.0337
G0 F2625 X136.504 Y124.483
;TYPE:SKIN
G1 F900 X143.495 Y131.474 E41.36303
G1 X143.583 Y131.562
G0 F2625 X143.495 Y132.181
G1 F900 X136.504 Y125.19 E41.69236
G1 X136.416 Y125.102
G0 F2625 X136.504 Y125.897
G1 F900 X143.495 Y132.888 E42.0217
G1 X143.583 Y132.976
G0 F2625 X143.495 Y133.595
G1 F900 X136.504 Y126.604 E42.35103
G1 X136.416 Y126.516
G0 F2625 X136.504 Y127.311
G1 F900 X143.495 Y134.302 E42.68036
G1 X143.583 Y134.39
G0 F2625 X143.495 Y135.01
G1 F900 X136.504 Y128.018 E43.00971
G1 X136.416 Y127.93
G0 F2625 X136.504 Y128.725
G1 F900 X141.903 Y134.125 E43.26407
G1 X141.991 Y134.213
G0 F2625 X142.148 Y134.37
G1 F900 X143.495 Y135.717 E43.32753
G1 X143.583 Y135.805
